;Puzzle Fusion 1.0
;Machine
;vendor: Snapmaker
;description: Generic Snapmaker Marlin v20180725
M3 P100
G4 S2
G21
G90

;2D Pocket7
G0 X4.120 Y19.452 Z15.000
G0 X4.120 Y19.452 Z15.000
G0 X4.120 Y19.452 Z5.000
G1 X4.120 Y19.452 Z0.300 F40
G1 X4.120 Y19.452 Z-1.350 F100
G1 X4.127 Y19.454 Z-1.396 F100
G1 X4.147 Y19.460 Z-1.438 F100
G1 X4.179 Y19.471 Z-1.471 F100
G1 X4.219 Y19.484 Z-1.493 F100
G1 X4.263 Y19.498 Z-1.500 F100
G1 X4.354 Y19.536 Z-1.500 F100
G1 X4.439 Y19.588 Z-1.500 F100
G1 X4.515 Y19.652 Z-1.500 F100
G1 X4.579 Y19.728 Z-1.500 F100
G1 X4.631 Y19.813 Z-1.500 F100
G1 X4.669 Y19.904 Z-1.500 F100
G1 X4.692 Y20.001 Z-1.500 F100
G1 X4.700 Y20.100 Z-1.500 F100
G1 X4.692 Y20.373 Z-1.500 F100
G1 X4.668 Y20.646 Z-1.500 F100
G1 X4.629 Y20.916 Z-1.500 F100
G1 X4.573 Y21.184 Z-1.500 F100
G1 X4.503 Y21.448 Z-1.500 F100
G1 X4.417 Y21.707 Z-1.500 F100
G1 X4.316 Y21.962 Z-1.500 F100
G1 X4.200 Y22.209 Z-1.500 F100
G1 X4.070 Y22.450 Z-1.500 F100
G1 X3.927 Y22.683 Z-1.500 F100
G1 X3.770 Y22.907 Z-1.500 F100
G1 X3.600 Y23.121 Z-1.500 F100
G1 X3.419 Y23.325 Z-1.500 F100
G1 X3.225 Y23.519 Z-1.500 F100
G1 X3.021 Y23.700 Z-1.500 F100
G1 X2.807 Y23.870 Z-1.500 F100
G1 X2.583 Y24.027 Z-1.500 F100
G1 X2.350 Y24.170 Z-1.500 F100
G1 X2.109 Y24.300 Z-1.500 F100
G1 X1.862 Y24.416 Z-1.500 F100
G1 X1.607 Y24.517 Z-1.500 F100
G1 X1.348 Y24.603 Z-1.500 F100
G1 X1.084 Y24.673 Z-1.500 F100
G1 X0.816 Y24.729 Z-1.500 F100
G1 X0.546 Y24.768 Z-1.500 F100
G1 X0.273 Y24.792 Z-1.500 F100
G1 X0.000 Y24.800 Z-1.500 F100
G1 X-0.273 Y24.792 Z-1.500 F100
G1 X-0.546 Y24.768 Z-1.500 F100
G1 X-0.816 Y24.729 Z-1.500 F100
G1 X-1.084 Y24.673 Z-1.500 F100
G1 X-1.348 Y24.603 Z-1.500 F100
G1 X-1.607 Y24.517 Z-1.500 F100
G1 X-1.862 Y24.416 Z-1.500 F100
G1 X-2.109 Y24.300 Z-1.500 F100
G1 X-2.350 Y24.170 Z-1.500 F100
G1 X-2.583 Y24.027 Z-1.500 F100
G1 X-2.807 Y23.870 Z-1.500 F100
G1 X-3.021 Y23.700 Z-1.500 F100
G1 X-3.225 Y23.519 Z-1.500 F100
G1 X-3.419 Y23.325 Z-1.500 F100
G1 X-3.600 Y23.121 Z-1.500 F100
G1 X-3.770 Y22.907 Z-1.500 F100
G1 X-3.927 Y22.683 Z-1.500 F100
G1 X-4.070 Y22.450 Z-1.500 F100
G1 X-4.200 Y22.209 Z-1.500 F100
G1 X-4.316 Y21.962 Z-1.500 F100
G1 X-4.417 Y21.707 Z-1.500 F100
G1 X-4.503 Y21.448 Z-1.500 F100
G1 X-4.573 Y21.184 Z-1.500 F100
G1 X-4.629 Y20.916 Z-1.500 F100
G1 X-4.668 Y20.646 Z-1.500 F100
G1 X-4.692 Y20.373 Z-1.500 F100
G1 X-4.700 Y20.100 Z-1.500 F100
G1 X-4.692 Y19.827 Z-1.500 F100
G1 X-4.668 Y19.554 Z-1.500 F100
G1 X-4.629 Y19.284 Z-1.500 F100
G1 X-4.573 Y19.016 Z-1.500 F100
G1 X-4.503 Y18.752 Z-1.500 F100
G1 X-4.417 Y18.493 Z-1.500 F100
G1 X-4.316 Y18.238 Z-1.500 F100
G1 X-4.200 Y17.991 Z-1.500 F100
G1 X-4.070 Y17.750 Z-1.500 F100
G1 X-3.927 Y17.517 Z-1.500 F100
G1 X-3.770 Y17.293 Z-1.500 F100
G1 X-3.600 Y17.079 Z-1.500 F100
G1 X-3.419 Y16.875 Z-1.500 F100
G1 X-3.225 Y16.681 Z-1.500 F100
G1 X-3.021 Y16.500 Z-1.500 F100
G1 X-2.807 Y16.330 Z-1.500 F100
G1 X-2.583 Y16.173 Z-1.500 F100
G1 X-2.350 Y16.030 Z-1.500 F100
G1 X-2.109 Y15.900 Z-1.500 F100
G1 X-1.862 Y15.784 Z-1.500 F100
G1 X-1.607 Y15.683 Z-1.500 F100
G1 X-1.348 Y15.597 Z-1.500 F100
G1 X-1.084 Y15.527 Z-1.500 F100
G1 X-0.816 Y15.471 Z-1.500 F100
G1 X-0.546 Y15.432 Z-1.500 F100
G1 X-0.273 Y15.408 Z-1.500 F100
G1 X0.000 Y15.400 Z-1.500 F100
G1 X0.273 Y15.408 Z-1.500 F100
G1 X0.546 Y15.432 Z-1.500 F100
G1 X0.816 Y15.471 Z-1.500 F100
G1 X1.084 Y15.527 Z-1.500 F100
G1 X1.348 Y15.597 Z-1.500 F100
G1 X1.607 Y15.683 Z-1.500 F100
G1 X1.862 Y15.784 Z-1.500 F100
G1 X2.109 Y15.900 Z-1.500 F100
G1 X2.350 Y16.030 Z-1.500 F100
G1 X2.583 Y16.173 Z-1.500 F100
G1 X2.807 Y16.330 Z-1.500 F100
G1 X3.021 Y16.500 Z-1.500 F100
G1 X3.225 Y16.681 Z-1.500 F100
G1 X3.419 Y16.875 Z-1.500 F100
G1 X3.600 Y17.079 Z-1.500 F100
G1 X3.770 Y17.293 Z-1.500 F100
G1 X3.927 Y17.517 Z-1.500 F100
G1 X4.070 Y17.750 Z-1.500 F100
G1 X4.200 Y17.991 Z-1.500 F100
G1 X4.316 Y18.238 Z-1.500 F100
G1 X4.417 Y18.493 Z-1.500 F100
G1 X4.503 Y18.752 Z-1.500 F100
G1 X4.573 Y19.016 Z-1.500 F100
G1 X4.629 Y19.284 Z-1.500 F100
G1 X4.668 Y19.554 Z-1.500 F100
G1 X4.692 Y19.827 Z-1.500 F100
G1 X4.700 Y20.100 Z-1.500 F100
G1 X4.707 Y20.201 Z-1.500 F100
G1 X4.728 Y20.299 Z-1.500 F100
G1 X4.763 Y20.394 Z-1.500 F100
G1 X4.811 Y20.482 Z-1.500 F100
G1 X4.871 Y20.564 Z-1.500 F100
G1 X4.941 Y20.636 Z-1.500 F100
G1 X5.021 Y20.697 Z-1.500 F100
G1 X5.109 Y20.746 Z-1.500 F100
G1 X5.189 Y20.792 Z-1.500 F100
G1 X5.261 Y20.849 Z-1.500 F100
G1 X5.324 Y20.916 Z-1.500 F100
G1 X5.376 Y20.992 Z-1.500 F100
G1 X5.415 Y21.075 Z-1.500 F100
G1 X5.442 Y21.163 Z-1.500 F100
G1 X5.454 Y21.254 Z-1.500 F100
G1 X5.453 Y21.346 Z-1.500 F100
G1 X5.438 Y21.437 Z-1.500 F100
G1 X5.359 Y21.724 Z-1.500 F100
G1 X5.265 Y22.007 Z-1.500 F100
G1 X5.156 Y22.285 Z-1.500 F100
G1 X5.033 Y22.556 Z-1.500 F100
G1 X4.895 Y22.821 Z-1.500 F100
G1 X4.743 Y23.077 Z-1.500 F100
G1 X4.578 Y23.325 Z-1.500 F100
G1 X4.400 Y23.565 Z-1.500 F100
G1 X4.209 Y23.794 Z-1.500 F100
G1 X4.006 Y24.013 Z-1.500 F100
G1 X3.793 Y24.220 Z-1.500 F100
G1 X3.568 Y24.416 Z-1.500 F100
G1 X3.333 Y24.600 Z-1.500 F100
G1 X3.089 Y24.771 Z-1.500 F100
G1 X2.836 Y24.929 Z-1.500 F100
G1 X2.575 Y25.073 Z-1.500 F100
G1 X2.307 Y25.203 Z-1.500 F100
G1 X2.032 Y25.318 Z-1.500 F100
G1 X1.751 Y25.419 Z-1.500 F100
G1 X1.465 Y25.505 Z-1.500 F100
G1 X1.176 Y25.575 Z-1.500 F100
G1 X0.883 Y25.630 Z-1.500 F100
G1 X0.587 Y25.669 Z-1.500 F100
G1 X0.290 Y25.692 Z-1.500 F100
G1 X-0.008 Y25.700 Z-1.500 F100
G1 X-0.306 Y25.692 Z-1.500 F100
G1 X-0.603 Y25.667 Z-1.500 F100
G1 X-0.899 Y25.627 Z-1.500 F100
G1 X-1.192 Y25.572 Z-1.500 F100
G1 X-1.481 Y25.501 Z-1.500 F100
G1 X-1.767 Y25.414 Z-1.500 F100
G1 X-2.047 Y25.313 Z-1.500 F100
G1 X-2.321 Y25.196 Z-1.500 F100
G1 X-2.589 Y25.065 Z-1.500 F100
G1 X-2.850 Y24.921 Z-1.500 F100
G1 X-3.102 Y24.762 Z-1.500 F100
G1 X-3.346 Y24.590 Z-1.500 F100
G1 X-3.580 Y24.406 Z-1.500 F100
G1 X-3.805 Y24.209 Z-1.500 F100
G1 X-4.018 Y24.001 Z-1.500 F100
G1 X-4.220 Y23.782 Z-1.500 F100
G1 X-4.410 Y23.552 Z-1.500 F100
G1 X-4.587 Y23.312 Z-1.500 F100
G1 X-4.752 Y23.063 Z-1.500 F100
G1 X-4.903 Y22.806 Z-1.500 F100
G1 X-5.040 Y22.542 Z-1.500 F100
G1 X-5.163 Y22.270 Z-1.500 F100
G1 X-5.271 Y21.992 Z-1.500 F100
G1 X-5.364 Y21.709 Z-1.500 F100
G1 X-5.442 Y21.421 Z-1.500 F100
G1 X-5.505 Y21.130 Z-1.500 F100
G1 X-5.552 Y20.835 Z-1.500 F100
G1 X-5.583 Y20.539 Z-1.500 F100
G1 X-5.598 Y20.241 Z-1.500 F100
G1 X-5.598 Y19.943 Z-1.500 F100
G1 X-5.581 Y19.645 Z-1.500 F100
G1 X-5.549 Y19.349 Z-1.500 F100
G1 X-5.502 Y19.054 Z-1.500 F100
G1 X-5.438 Y18.763 Z-1.500 F100
G1 X-5.359 Y18.476 Z-1.500 F100
G1 X-5.265 Y18.193 Z-1.500 F100
G1 X-5.156 Y17.915 Z-1.500 F100
G1 X-5.033 Y17.644 Z-1.500 F100
G1 X-4.895 Y17.379 Z-1.500 F100
G1 X-4.743 Y17.123 Z-1.500 F100
G1 X-4.578 Y16.875 Z-1.500 F100
G1 X-4.400 Y16.635 Z-1.500 F100
G1 X-4.209 Y16.406 Z-1.500 F100
G1 X-4.006 Y16.187 Z-1.500 F100
G1 X-3.793 Y15.980 Z-1.500 F100
G1 X-3.568 Y15.784 Z-1.500 F100
G1 X-3.333 Y15.600 Z-1.500 F100
G1 X-3.089 Y15.429 Z-1.500 F100
G1 X-2.836 Y15.271 Z-1.500 F100
G1 X-2.575 Y15.127 Z-1.500 F100
G1 X-2.307 Y14.997 Z-1.500 F100
G1 X-2.032 Y14.882 Z-1.500 F100
G1 X-1.751 Y14.781 Z-1.500 F100
G1 X-1.465 Y14.695 Z-1.500 F100
G1 X-1.176 Y14.625 Z-1.500 F100
G1 X-0.883 Y14.570 Z-1.500 F100
G1 X-0.587 Y14.531 Z-1.500 F100
G1 X-0.290 Y14.508 Z-1.500 F100
G1 X0.008 Y14.500 Z-1.500 F100
G1 X0.306 Y14.508 Z-1.500 F100
G1 X0.603 Y14.533 Z-1.500 F100
G1 X0.899 Y14.573 Z-1.500 F100
G1 X1.192 Y14.628 Z-1.500 F100
G1 X1.481 Y14.699 Z-1.500 F100
G1 X1.767 Y14.786 Z-1.500 F100
G1 X2.047 Y14.887 Z-1.500 F100
G1 X2.321 Y15.004 Z-1.500 F100
G1 X2.589 Y15.135 Z-1.500 F100
G1 X2.850 Y15.279 Z-1.500 F100
G1 X3.102 Y15.438 Z-1.500 F100
G1 X3.346 Y15.610 Z-1.500 F100
G1 X3.580 Y15.794 Z-1.500 F100
G1 X3.805 Y15.991 Z-1.500 F100
G1 X4.018 Y16.199 Z-1.500 F100
G1 X4.220 Y16.418 Z-1.500 F100
G1 X4.410 Y16.648 Z-1.500 F100
G1 X4.587 Y16.888 Z-1.500 F100
G1 X4.752 Y17.137 Z-1.500 F100
G1 X4.903 Y17.394 Z-1.500 F100
G1 X5.040 Y17.658 Z-1.500 F100
G1 X5.163 Y17.930 Z-1.500 F100
G1 X5.271 Y18.208 Z-1.500 F100
G1 X5.364 Y18.491 Z-1.500 F100
G1 X5.442 Y18.779 Z-1.500 F100
G1 X5.505 Y19.070 Z-1.500 F100
G1 X5.552 Y19.365 Z-1.500 F100
G1 X5.583 Y19.661 Z-1.500 F100
G1 X5.598 Y19.959 Z-1.500 F100
G1 X5.598 Y20.257 Z-1.500 F100
G1 X5.581 Y20.555 Z-1.500 F100
G1 X5.549 Y20.851 Z-1.500 F100
G1 X5.502 Y21.146 Z-1.500 F100
G1 X5.438 Y21.437 Z-1.500 F100
G1 X5.421 Y21.537 Z-1.500 F100
G1 X5.418 Y21.639 Z-1.500 F100
G1 X5.430 Y21.740 Z-1.500 F100
G1 X5.455 Y21.838 Z-1.500 F100
G1 X5.495 Y21.932 Z-1.500 F100
G1 X5.547 Y22.020 Z-1.500 F100
G1 X5.611 Y22.099 Z-1.500 F100
G1 X5.686 Y22.168 Z-1.500 F100
G1 X5.753 Y22.231 Z-1.500 F100
G1 X5.811 Y22.303 Z-1.500 F100
G1 X5.857 Y22.383 Z-1.500 F100
G1 X5.891 Y22.469 Z-1.500 F100
G1 X5.911 Y22.560 Z-1.500 F100
G1 X5.918 Y22.652 Z-1.500 F100
G1 X5.911 Y22.744 Z-1.500 F100
G1 X5.890 Y22.834 Z-1.500 F100
G1 X5.856 Y22.920 Z-1.500 F100
G1 X5.710 Y23.206 Z-1.500 F100
G1 X5.549 Y23.485 Z-1.500 F100
G1 X5.375 Y23.755 Z-1.500 F100
G1 X5.188 Y24.016 Z-1.500 F100
G1 X4.988 Y24.268 Z-1.500 F100
G1 X4.775 Y24.510 Z-1.500 F100
G1 X4.551 Y24.740 Z-1.500 F100
G1 X4.316 Y24.960 Z-1.500 F100
G1 X4.071 Y25.167 Z-1.500 F100
G1 X3.815 Y25.363 Z-1.500 F100
G1 X3.550 Y25.545 Z-1.500 F100
G1 X3.277 Y25.714 Z-1.500 F100
G1 X2.995 Y25.869 Z-1.500 F100
G1 X2.706 Y26.010 Z-1.500 F100
G1 X2.411 Y26.137 Z-1.500 F100
G1 X2.109 Y26.248 Z-1.500 F100
G1 X1.802 Y26.345 Z-1.500 F100
G1 X1.491 Y26.427 Z-1.500 F100
G1 X1.177 Y26.493 Z-1.500 F100
G1 X0.859 Y26.543 Z-1.500 F100
G1 X0.539 Y26.578 Z-1.500 F100
G1 X0.218 Y26.596 Z-1.500 F100
G1 X-0.103 Y26.599 Z-1.500 F100
G1 X-0.424 Y26.586 Z-1.500 F100
G1 X-0.745 Y26.557 Z-1.500 F100
G1 X-1.063 Y26.512 Z-1.500 F100
G1 X-1.379 Y26.452 Z-1.500 F100
G1 X-1.691 Y26.376 Z-1.500 F100
G1 X-2.000 Y26.285 Z-1.500 F100
G1 X-2.303 Y26.178 Z-1.500 F100
G1 X-2.601 Y26.057 Z-1.500 F100
G1 X-2.892 Y25.921 Z-1.500 F100
G1 X-3.177 Y25.771 Z-1.500 F100
G1 X-3.453 Y25.607 Z-1.500 F100
G1 X-3.721 Y25.429 Z-1.500 F100
G1 X-3.980 Y25.239 Z-1.500 F100
G1 X-4.230 Y25.036 Z-1.500 F100
G1 X-4.468 Y24.820 Z-1.500 F100
G1 X-4.696 Y24.594 Z-1.500 F100
G1 X-4.913 Y24.356 Z-1.500 F100
G1 X-5.117 Y24.108 Z-1.500 F100
G1 X-5.309 Y23.850 Z-1.500 F100
G1 X-5.488 Y23.583 Z-1.500 F100
G1 X-5.654 Y23.307 Z-1.500 F100
G1 X-5.805 Y23.023 Z-1.500 F100
G1 X-5.943 Y22.733 Z-1.500 F100
G1 X-6.066 Y22.436 Z-1.500 F100
G1 X-6.174 Y22.133 Z-1.500 F100
G1 X-6.267 Y21.825 Z-1.500 F100
G1 X-6.345 Y21.513 Z-1.500 F100
G1 X-6.407 Y21.198 Z-1.500 F100
G1 X-6.453 Y20.879 Z-1.500 F100
G1 X-6.484 Y20.559 Z-1.500 F100
G1 X-6.499 Y20.238 Z-1.500 F100
G1 X-6.497 Y19.916 Z-1.500 F100
G1 X-6.480 Y19.595 Z-1.500 F100
G1 X-6.448 Y19.276 Z-1.500 F100
G1 X-6.399 Y18.958 Z-1.500 F100
G1 X-6.335 Y18.643 Z-1.500 F100
G1 X-6.255 Y18.331 Z-1.500 F100
G1 X-6.160 Y18.024 Z-1.500 F100
G1 X-6.049 Y17.722 Z-1.500 F100
G1 X-5.924 Y17.426 Z-1.500 F100
G1 X-5.785 Y17.136 Z-1.500 F100
G1 X-5.631 Y16.854 Z-1.500 F100
G1 X-5.464 Y16.579 Z-1.500 F100
G1 X-5.283 Y16.313 Z-1.500 F100
G1 X-5.089 Y16.056 Z-1.500 F100
G1 X-4.883 Y15.810 Z-1.500 F100
G1 X-4.665 Y15.574 Z-1.500 F100
G1 X-4.435 Y15.348 Z-1.500 F100
G1 X-4.195 Y15.135 Z-1.500 F100
G1 X-3.944 Y14.933 Z-1.500 F100
G1 X-3.684 Y14.745 Z-1.500 F100
G1 X-3.415 Y14.569 Z-1.500 F100
G1 X-3.137 Y14.407 Z-1.500 F100
G1 X-2.851 Y14.259 Z-1.500 F100
G1 X-2.559 Y14.125 Z-1.500 F100
G1 X-2.260 Y14.006 Z-1.500 F100
G1 X-1.956 Y13.901 Z-1.500 F100
G1 X-1.647 Y13.812 Z-1.500 F100
G1 X-1.334 Y13.738 Z-1.500 F100
G1 X-1.018 Y13.680 Z-1.500 F100
G1 X-0.699 Y13.638 Z-1.500 F100
G1 X-0.379 Y13.611 Z-1.500 F100
G1 X-0.058 Y13.600 Z-1.500 F100
G1 X0.264 Y13.605 Z-1.500 F100
G1 X0.585 Y13.626 Z-1.500 F100
G1 X0.904 Y13.663 Z-1.500 F100
G1 X1.221 Y13.716 Z-1.500 F100
G1 X1.536 Y13.784 Z-1.500 F100
G1 X1.846 Y13.868 Z-1.500 F100
G1 X2.152 Y13.967 Z-1.500 F100
G1 X2.453 Y14.081 Z-1.500 F100
G1 X2.747 Y14.209 Z-1.500 F100
G1 X3.035 Y14.352 Z-1.500 F100
G1 X3.316 Y14.509 Z-1.500 F100
G1 X3.588 Y14.680 Z-1.500 F100
G1 X3.852 Y14.864 Z-1.500 F100
G1 X4.106 Y15.061 Z-1.500 F100
G1 X4.350 Y15.270 Z-1.500 F100
G1 X4.584 Y15.491 Z-1.500 F100
G1 X4.806 Y15.724 Z-1.500 F100
G1 X5.017 Y15.967 Z-1.500 F100
G1 X5.215 Y16.220 Z-1.500 F100
G1 X5.400 Y16.483 Z-1.500 F100
G1 X5.573 Y16.754 Z-1.500 F100
G1 X5.731 Y17.034 Z-1.500 F100
G1 X5.876 Y17.321 Z-1.500 F100
G1 X6.006 Y17.615 Z-1.500 F100
G1 X6.122 Y17.915 Z-1.500 F100
G1 X6.222 Y18.220 Z-1.500 F100
G1 X6.308 Y18.531 Z-1.500 F100
G1 X6.378 Y18.844 Z-1.500 F100
G1 X6.432 Y19.161 Z-1.500 F100
G1 X6.470 Y19.481 Z-1.500 F100
G1 X6.493 Y19.801 Z-1.500 F100
G1 X6.500 Y20.123 Z-1.500 F100
G1 X6.491 Y20.444 Z-1.500 F100
G1 X6.466 Y20.765 Z-1.500 F100
G1 X6.425 Y21.084 Z-1.500 F100
G1 X6.369 Y21.400 Z-1.500 F100
G1 X6.297 Y21.714 Z-1.500 F100
G1 X6.209 Y22.023 Z-1.500 F100
G1 X6.106 Y22.328 Z-1.500 F100
G1 X5.989 Y22.627 Z-1.500 F100
G1 X5.856 Y22.920 Z-1.500 F100
G1 X5.819 Y23.015 Z-1.500 F100
G1 X5.795 Y23.115 Z-1.500 F100
G1 X5.785 Y23.217 Z-1.500 F100
G1 X5.791 Y23.319 Z-1.500 F100
G1 X5.810 Y23.420 Z-1.500 F100
G1 X5.844 Y23.516 Z-1.500 F100
G1 X5.891 Y23.607 Z-1.500 F100
G1 X5.951 Y23.691 Z-1.500 F100
G1 X6.004 Y23.766 Z-1.500 F100
G1 X6.047 Y23.849 Z-1.500 F100
G1 X6.076 Y23.937 Z-1.500 F100
G1 X6.093 Y24.028 Z-1.500 F100
G1 X6.095 Y24.121 Z-1.500 F100
G1 X6.085 Y24.213 Z-1.500 F100
G1 X6.060 Y24.303 Z-1.500 F100
G1 X6.023 Y24.388 Z-1.500 F100
G1 X5.974 Y24.467 Z-1.500 F100
G1 X5.766 Y24.738 Z-1.500 F100
G1 X5.546 Y24.999 Z-1.500 F100
G1 X5.314 Y25.250 Z-1.500 F100
G1 X5.070 Y25.490 Z-1.500 F100
G1 X4.816 Y25.719 Z-1.500 F100
G1 X4.551 Y25.935 Z-1.500 F100
G1 X4.277 Y26.139 Z-1.500 F100
G1 X3.993 Y26.330 Z-1.500 F100
G1 X3.701 Y26.508 Z-1.500 F100
G1 X3.401 Y26.672 Z-1.500 F100
G1 X3.094 Y26.822 Z-1.500 F100
G1 X2.781 Y26.958 Z-1.500 F100
G1 X2.461 Y27.079 Z-1.500 F100
G1 X2.136 Y27.185 Z-1.500 F100
G1 X1.806 Y27.276 Z-1.500 F100
G1 X1.473 Y27.352 Z-1.500 F100
G1 X1.137 Y27.412 Z-1.500 F100
G1 X0.798 Y27.457 Z-1.500 F100
G1 X0.457 Y27.486 Z-1.500 F100
G1 X0.115 Y27.499 Z-1.500 F100
G1 X-0.226 Y27.497 Z-1.500 F100
G1 X-0.568 Y27.478 Z-1.500 F100
G1 X-0.908 Y27.444 Z-1.500 F100
G1 X-1.246 Y27.394 Z-1.500 F100
G1 X-1.582 Y27.329 Z-1.500 F100
G1 X-1.914 Y27.248 Z-1.500 F100
G1 X-2.242 Y27.152 Z-1.500 F100
G1 X-2.565 Y27.041 Z-1.500 F100
G1 X-2.883 Y26.915 Z-1.500 F100
G1 X-3.195 Y26.775 Z-1.500 F100
G1 X-3.500 Y26.620 Z-1.500 F100
G1 X-3.797 Y26.452 Z-1.500 F100
G1 X-4.086 Y26.269 Z-1.500 F100
G1 X-4.367 Y26.074 Z-1.500 F100
G1 X-4.638 Y25.866 Z-1.500 F100
G1 X-4.899 Y25.646 Z-1.500 F100
G1 X-5.150 Y25.414 Z-1.500 F100
G1 X-5.390 Y25.170 Z-1.500 F100
G1 X-5.619 Y24.916 Z-1.500 F100
G1 X-5.835 Y24.651 Z-1.500 F100
G1 X-6.039 Y24.377 Z-1.500 F100
G1 X-6.230 Y24.093 Z-1.500 F100
G1 X-6.408 Y23.801 Z-1.500 F100
G1 X-6.572 Y23.501 Z-1.500 F100
G1 X-6.722 Y23.194 Z-1.500 F100
G1 X-6.858 Y22.881 Z-1.500 F100
G1 X-6.979 Y22.561 Z-1.500 F100
G1 X-7.085 Y22.236 Z-1.500 F100
G1 X-7.176 Y21.906 Z-1.500 F100
G1 X-7.252 Y21.573 Z-1.500 F100
G1 X-7.312 Y21.237 Z-1.500 F100
G1 X-7.357 Y20.898 Z-1.500 F100
G1 X-7.386 Y20.557 Z-1.500 F100
G1 X-7.399 Y20.215 Z-1.500 F100
G1 X-7.397 Y19.874 Z-1.500 F100
G1 X-7.378 Y19.532 Z-1.500 F100
G1 X-7.344 Y19.192 Z-1.500 F100
G1 X-7.294 Y18.854 Z-1.500 F100
G1 X-7.229 Y18.518 Z-1.500 F100
G1 X-7.148 Y18.186 Z-1.500 F100
G1 X-7.052 Y17.858 Z-1.500 F100
G1 X-6.941 Y17.535 Z-1.500 F100
G1 X-6.815 Y17.217 Z-1.500 F100
G1 X-6.675 Y16.905 Z-1.500 F100
G1 X-6.520 Y16.600 Z-1.500 F100
G1 X-6.352 Y16.303 Z-1.500 F100
G1 X-6.169 Y16.014 Z-1.500 F100
G1 X-5.974 Y15.733 Z-1.500 F100
G1 X-5.766 Y15.462 Z-1.500 F100
G1 X-5.546 Y15.201 Z-1.500 F100
G1 X-5.314 Y14.950 Z-1.500 F100
G1 X-5.070 Y14.710 Z-1.500 F100
G1 X-4.816 Y14.481 Z-1.500 F100
G1 X-4.551 Y14.265 Z-1.500 F100
G1 X-4.277 Y14.061 Z-1.500 F100
G1 X-3.993 Y13.870 Z-1.500 F100
G1 X-3.701 Y13.692 Z-1.500 F100
G1 X-3.401 Y13.528 Z-1.500 F100
G1 X-3.094 Y13.378 Z-1.500 F100
G1 X-2.781 Y13.242 Z-1.500 F100
G1 X-2.461 Y13.121 Z-1.500 F100
G1 X-2.136 Y13.015 Z-1.500 F100
G1 X-1.806 Y12.924 Z-1.500 F100
G1 X-1.473 Y12.848 Z-1.500 F100
G1 X-1.137 Y12.788 Z-1.500 F100
G1 X-0.798 Y12.743 Z-1.500 F100
G1 X-0.457 Y12.714 Z-1.500 F100
G1 X-0.115 Y12.701 Z-1.500 F100
G1 X0.226 Y12.703 Z-1.500 F100
G1 X0.568 Y12.722 Z-1.500 F100
G1 X0.908 Y12.756 Z-1.500 F100
G1 X1.246 Y12.806 Z-1.500 F100
G1 X1.582 Y12.871 Z-1.500 F100
G1 X1.914 Y12.952 Z-1.500 F100
G1 X2.242 Y13.048 Z-1.500 F100
G1 X2.565 Y13.159 Z-1.500 F100
G1 X2.883 Y13.285 Z-1.500 F100
G1 X3.195 Y13.425 Z-1.500 F100
G1 X3.500 Y13.580 Z-1.500 F100
G1 X3.797 Y13.748 Z-1.500 F100
G1 X4.086 Y13.931 Z-1.500 F100
G1 X4.367 Y14.126 Z-1.500 F100
G1 X4.638 Y14.334 Z-1.500 F100
G1 X4.899 Y14.554 Z-1.500 F100
G1 X5.150 Y14.786 Z-1.500 F100
G1 X5.390 Y15.030 Z-1.500 F100
G1 X5.619 Y15.284 Z-1.500 F100
G1 X5.835 Y15.549 Z-1.500 F100
G1 X6.039 Y15.823 Z-1.500 F100
G1 X6.230 Y16.107 Z-1.500 F100
G1 X6.408 Y16.399 Z-1.500 F100
G1 X6.572 Y16.699 Z-1.500 F100
G1 X6.722 Y17.006 Z-1.500 F100
G1 X6.858 Y17.319 Z-1.500 F100
G1 X6.979 Y17.639 Z-1.500 F100
G1 X7.085 Y17.964 Z-1.500 F100
G1 X7.176 Y18.294 Z-1.500 F100
G1 X7.252 Y18.627 Z-1.500 F100
G1 X7.312 Y18.963 Z-1.500 F100
G1 X7.357 Y19.302 Z-1.500 F100
G1 X7.386 Y19.643 Z-1.500 F100
G1 X7.399 Y19.985 Z-1.500 F100
G1 X7.397 Y20.326 Z-1.500 F100
G1 X7.378 Y20.668 Z-1.500 F100
G1 X7.344 Y21.008 Z-1.500 F100
G1 X7.294 Y21.346 Z-1.500 F100
G1 X7.229 Y21.682 Z-1.500 F100
G1 X7.148 Y22.014 Z-1.500 F100
G1 X7.052 Y22.342 Z-1.500 F100
G1 X6.941 Y22.665 Z-1.500 F100
G1 X6.815 Y22.983 Z-1.500 F100
G1 X6.675 Y23.295 Z-1.500 F100
G1 X6.520 Y23.600 Z-1.500 F100
G1 X6.352 Y23.897 Z-1.500 F100
G1 X6.169 Y24.186 Z-1.500 F100
G1 X5.974 Y24.467 Z-1.500 F100
G1 X5.920 Y24.554 Z-1.500 F100
G1 X5.878 Y24.648 Z-1.500 F100
G1 X5.850 Y24.747 Z-1.500 F100
G1 X5.837 Y24.850 Z-1.500 F100
G1 X5.838 Y24.952 Z-1.500 F100
G1 X5.854 Y25.054 Z-1.500 F100
G1 X5.884 Y25.153 Z-1.500 F100
G1 X5.928 Y25.246 Z-1.500 F100
G1 X5.968 Y25.330 Z-1.500 F100
G1 X5.995 Y25.419 Z-1.500 F100
G1 X6.009 Y25.511 Z-1.500 F100
G1 X6.009 Y25.604 Z-1.500 F100
G1 X5.996 Y25.696 Z-1.500 F100
G1 X5.970 Y25.786 Z-1.500 F100
G1 X5.931 Y25.870 Z-1.500 F100
G1 X5.881 Y25.948 Z-1.500 F100
G1 X5.819 Y26.018 Z-1.500 F100
G1 X5.555 Y26.267 Z-1.500 F100
G1 X5.281 Y26.503 Z-1.500 F100
G1 X4.997 Y26.727 Z-1.500 F100
G1 X4.703 Y26.939 Z-1.500 F100
G1 X4.400 Y27.138 Z-1.500 F100
G1 X4.089 Y27.323 Z-1.500 F100
G1 X3.770 Y27.494 Z-1.500 F100
G1 X3.444 Y27.652 Z-1.500 F100
G1 X3.111 Y27.795 Z-1.500 F100
G1 X2.773 Y27.923 Z-1.500 F100
G1 X2.429 Y28.037 Z-1.500 F100
G1 X2.080 Y28.135 Z-1.500 F100
G1 X1.728 Y28.218 Z-1.500 F100
G1 X1.372 Y28.286 Z-1.500 F100
G1 X1.014 Y28.338 Z-1.500 F100
G1 X0.654 Y28.374 Z-1.500 F100
G1 X0.292 Y28.395 Z-1.500 F100
G1 X-0.070 Y28.400 Z-1.500 F100
G1 X-0.432 Y28.389 Z-1.500 F100
G1 X-0.793 Y28.362 Z-1.500 F100
G1 X-1.153 Y28.320 Z-1.500 F100
G1 X-1.510 Y28.261 Z-1.500 F100
G1 X-1.865 Y28.188 Z-1.500 F100
G1 X-2.216 Y28.099 Z-1.500 F100
G1 X-2.563 Y27.994 Z-1.500 F100
G1 X-2.905 Y27.875 Z-1.500 F100
G1 X-3.241 Y27.741 Z-1.500 F100
G1 X-3.571 Y27.592 Z-1.500 F100
G1 X-3.895 Y27.430 Z-1.500 F100
G1 X-4.211 Y27.253 Z-1.500 F100
G1 X-4.519 Y27.062 Z-1.500 F100
G1 X-4.818 Y26.858 Z-1.500 F100
G1 X-5.108 Y26.642 Z-1.500 F100
G1 X-5.389 Y26.413 Z-1.500 F100
G1 X-5.659 Y26.172 Z-1.500 F100
G1 X-5.918 Y25.919 Z-1.500 F100
G1 X-6.167 Y25.655 Z-1.500 F100
G1 X-6.403 Y25.381 Z-1.500 F100
G1 X-6.627 Y25.097 Z-1.500 F100
G1 X-6.839 Y24.803 Z-1.500 F100
G1 X-7.038 Y24.500 Z-1.500 F100
G1 X-7.223 Y24.189 Z-1.500 F100
G1 X-7.394 Y23.870 Z-1.500 F100
G1 X-7.552 Y23.544 Z-1.500 F100
G1 X-7.695 Y23.211 Z-1.500 F100
G1 X-7.823 Y22.873 Z-1.500 F100
G1 X-7.937 Y22.529 Z-1.500 F100
G1 X-8.035 Y22.180 Z-1.500 F100
G1 X-8.118 Y21.828 Z-1.500 F100
G1 X-8.186 Y21.472 Z-1.500 F100
G1 X-8.238 Y21.114 Z-1.500 F100
G1 X-8.274 Y20.754 Z-1.500 F100
G1 X-8.295 Y20.392 Z-1.500 F100
G1 X-8.300 Y20.030 Z-1.500 F100
G1 X-8.289 Y19.668 Z-1.500 F100
G1 X-8.262 Y19.307 Z-1.500 F100
G1 X-8.220 Y18.947 Z-1.500 F100
G1 X-8.161 Y18.590 Z-1.500 F100
G1 X-8.088 Y18.235 Z-1.500 F100
G1 X-7.999 Y17.884 Z-1.500 F100
G1 X-7.894 Y17.537 Z-1.500 F100
G1 X-7.775 Y17.195 Z-1.500 F100
G1 X-7.641 Y16.859 Z-1.500 F100
G1 X-7.492 Y16.529 Z-1.500 F100
G1 X-7.330 Y16.205 Z-1.500 F100
G1 X-7.153 Y15.889 Z-1.500 F100
G1 X-6.962 Y15.581 Z-1.500 F100
G1 X-6.758 Y15.282 Z-1.500 F100
G1 X-6.542 Y14.992 Z-1.500 F100
G1 X-6.313 Y14.711 Z-1.500 F100
G1 X-6.072 Y14.441 Z-1.500 F100
G1 X-5.819 Y14.182 Z-1.500 F100
G1 X-5.555 Y13.933 Z-1.500 F100
G1 X-5.281 Y13.697 Z-1.500 F100
G1 X-4.997 Y13.473 Z-1.500 F100
G1 X-4.703 Y13.261 Z-1.500 F100
G1 X-4.400 Y13.062 Z-1.500 F100
G1 X-4.089 Y12.877 Z-1.500 F100
G1 X-3.770 Y12.706 Z-1.500 F100
G1 X-3.444 Y12.548 Z-1.500 F100
G1 X-3.111 Y12.405 Z-1.500 F100
G1 X-2.773 Y12.277 Z-1.500 F100
G1 X-2.429 Y12.163 Z-1.500 F100
G1 X-2.080 Y12.065 Z-1.500 F100
G1 X-1.728 Y11.982 Z-1.500 F100
G1 X-1.372 Y11.914 Z-1.500 F100
G1 X-1.014 Y11.862 Z-1.500 F100
G1 X-0.654 Y11.826 Z-1.500 F100
G1 X-0.292 Y11.805 Z-1.500 F100
G1 X0.070 Y11.800 Z-1.500 F100
G1 X0.432 Y11.811 Z-1.500 F100
G1 X0.793 Y11.838 Z-1.500 F100
G1 X1.153 Y11.880 Z-1.500 F100
G1 X1.510 Y11.939 Z-1.500 F100
G1 X1.865 Y12.012 Z-1.500 F100
G1 X2.216 Y12.101 Z-1.500 F100
G1 X2.563 Y12.206 Z-1.500 F100
G1 X2.905 Y12.325 Z-1.500 F100
G1 X3.241 Y12.459 Z-1.500 F100
G1 X3.571 Y12.608 Z-1.500 F100
G1 X3.895 Y12.770 Z-1.500 F100
G1 X4.211 Y12.947 Z-1.500 F100
G1 X4.519 Y13.138 Z-1.500 F100
G1 X4.818 Y13.342 Z-1.500 F100
G1 X5.108 Y13.558 Z-1.500 F100
G1 X5.389 Y13.787 Z-1.500 F100
G1 X5.659 Y14.028 Z-1.500 F100
G1 X5.918 Y14.281 Z-1.500 F100
G1 X6.167 Y14.545 Z-1.500 F100
G1 X6.403 Y14.819 Z-1.500 F100
G1 X6.627 Y15.103 Z-1.500 F100
G1 X6.839 Y15.397 Z-1.500 F100
G1 X7.038 Y15.700 Z-1.500 F100
G1 X7.223 Y16.011 Z-1.500 F100
G1 X7.394 Y16.330 Z-1.500 F100
G1 X7.552 Y16.656 Z-1.500 F100
G1 X7.695 Y16.989 Z-1.500 F100
G1 X7.823 Y17.327 Z-1.500 F100
G1 X7.937 Y17.671 Z-1.500 F100
G1 X8.035 Y18.020 Z-1.500 F100
G1 X8.118 Y18.372 Z-1.500 F100
G1 X8.186 Y18.728 Z-1.500 F100
G1 X8.238 Y19.086 Z-1.500 F100
G1 X8.274 Y19.446 Z-1.500 F100
G1 X8.295 Y19.808 Z-1.500 F100
G1 X8.300 Y20.170 Z-1.500 F100
G1 X8.289 Y20.532 Z-1.500 F100
G1 X8.262 Y20.893 Z-1.500 F100
G1 X8.220 Y21.253 Z-1.500 F100
G1 X8.161 Y21.610 Z-1.500 F100
G1 X8.088 Y21.965 Z-1.500 F100
G1 X7.999 Y22.316 Z-1.500 F100
G1 X7.894 Y22.663 Z-1.500 F100
G1 X7.775 Y23.005 Z-1.500 F100
G1 X7.641 Y23.341 Z-1.500 F100
G1 X7.492 Y23.671 Z-1.500 F100
G1 X7.330 Y23.995 Z-1.500 F100
G1 X7.153 Y24.311 Z-1.500 F100
G1 X6.962 Y24.619 Z-1.500 F100
G1 X6.758 Y24.918 Z-1.500 F100
G1 X6.542 Y25.208 Z-1.500 F100
G1 X6.313 Y25.489 Z-1.500 F100
G1 X6.072 Y25.759 Z-1.500 F100
G1 X5.819 Y26.018 Z-1.500 F100
G1 X5.747 Y26.100 Z-1.500 F100
G1 X5.688 Y26.191 Z-1.500 F100
G1 X5.642 Y26.290 Z-1.500 F100
G1 X5.610 Y26.394 Z-1.500 F100
G1 X5.594 Y26.502 Z-1.500 F100
G1 X5.593 Y26.611 Z-1.500 F100
G1 X5.608 Y26.719 Z-1.500 F100
G1 X5.638 Y26.824 Z-1.500 F100
G1 X5.666 Y26.918 Z-1.500 F100
G1 X5.679 Y27.016 Z-1.500 F100
G1 X5.678 Y27.114 Z-1.500 F100
G1 X5.663 Y27.211 Z-1.500 F100
G1 X5.634 Y27.306 Z-1.500 F100
G1 X5.592 Y27.395 Z-1.500 F100
G1 X5.538 Y27.476 Z-1.500 F100
G1 X5.472 Y27.550 Z-1.500 F100
G1 X5.396 Y27.613 Z-1.500 F100
G1 X5.081 Y27.829 Z-1.500 F100
G1 X4.758 Y28.033 Z-1.500 F100
G1 X4.426 Y28.223 Z-1.500 F100
G1 X4.086 Y28.399 Z-1.500 F100
G1 X3.740 Y28.560 Z-1.500 F100
G1 X3.387 Y28.708 Z-1.500 F100
G1 X3.028 Y28.840 Z-1.500 F100
G1 X2.665 Y28.958 Z-1.500 F100
G1 X2.296 Y29.060 Z-1.500 F100
G1 X1.924 Y29.148 Z-1.500 F100
G1 X1.548 Y29.219 Z-1.500 F100
G1 X1.170 Y29.276 Z-1.500 F100
G1 X0.790 Y29.316 Z-1.500 F100
G1 X0.409 Y29.341 Z-1.500 F100
G1 X0.026 Y29.350 Z-1.500 F100
G1 X-0.356 Y29.343 Z-1.500 F100
G1 X-0.738 Y29.321 Z-1.500 F100
G1 X-1.118 Y29.282 Z-1.500 F100
G1 X-1.497 Y29.228 Z-1.500 F100
G1 X-1.872 Y29.158 Z-1.500 F100
G1 X-2.245 Y29.073 Z-1.500 F100
G1 X-2.614 Y28.973 Z-1.500 F100
G1 X-2.979 Y28.857 Z-1.500 F100
G1 X-3.338 Y28.727 Z-1.500 F100
G1 X-3.692 Y28.581 Z-1.500 F100
G1 X-4.039 Y28.422 Z-1.500 F100
G1 X-4.379 Y28.248 Z-1.500 F100
G1 X-4.712 Y28.060 Z-1.500 F100
G1 X-5.037 Y27.858 Z-1.500 F100
G1 X-5.354 Y27.643 Z-1.500 F100
G1 X-5.661 Y27.416 Z-1.500 F100
G1 X-5.958 Y27.176 Z-1.500 F100
G1 X-6.245 Y26.923 Z-1.500 F100
G1 X-6.522 Y26.659 Z-1.500 F100
G1 X-6.788 Y26.384 Z-1.500 F100
G1 X-7.041 Y26.098 Z-1.500 F100
G1 X-7.283 Y25.802 Z-1.500 F100
G1 X-7.513 Y25.496 Z-1.500 F100
G1 X-7.729 Y25.181 Z-1.500 F100
G1 X-7.933 Y24.858 Z-1.500 F100
G1 X-8.123 Y24.526 Z-1.500 F100
G1 X-8.299 Y24.186 Z-1.500 F100
G1 X-8.460 Y23.840 Z-1.500 F100
G1 X-8.608 Y23.487 Z-1.500 F100
G1 X-8.740 Y23.128 Z-1.500 F100
G1 X-8.858 Y22.765 Z-1.500 F100
G1 X-8.960 Y22.396 Z-1.500 F100
G1 X-9.048 Y22.024 Z-1.500 F100
G1 X-9.119 Y21.648 Z-1.500 F100
G1 X-9.176 Y21.270 Z-1.500 F100
G1 X-9.216 Y20.890 Z-1.500 F100
G1 X-9.241 Y20.509 Z-1.500 F100
G1 X-9.250 Y20.126 Z-1.500 F100
G1 X-9.243 Y19.744 Z-1.500 F100
G1 X-9.221 Y19.362 Z-1.500 F100
G1 X-9.182 Y18.982 Z-1.500 F100
G1 X-9.128 Y18.603 Z-1.500 F100
G1 X-9.058 Y18.228 Z-1.500 F100
G1 X-8.973 Y17.855 Z-1.500 F100
G1 X-8.873 Y17.486 Z-1.500 F100
G1 X-8.757 Y17.121 Z-1.500 F100
G1 X-8.627 Y16.762 Z-1.500 F100
G1 X-8.481 Y16.408 Z-1.500 F100
G1 X-8.322 Y16.061 Z-1.500 F100
G1 X-8.148 Y15.721 Z-1.500 F100
G1 X-7.960 Y15.388 Z-1.500 F100
G1 X-7.758 Y15.063 Z-1.500 F100
G1 X-7.543 Y14.746 Z-1.500 F100
G1 X-7.316 Y14.439 Z-1.500 F100
G1 X-7.076 Y14.142 Z-1.500 F100
G1 X-6.823 Y13.855 Z-1.500 F100
G1 X-6.559 Y13.578 Z-1.500 F100
G1 X-6.284 Y13.312 Z-1.500 F100
G1 X-5.998 Y13.059 Z-1.500 F100
G1 X-5.702 Y12.817 Z-1.500 F100
G1 X-5.396 Y12.587 Z-1.500 F100
G1 X-5.081 Y12.371 Z-1.500 F100
G1 X-4.758 Y12.167 Z-1.500 F100
G1 X-4.426 Y11.977 Z-1.500 F100
G1 X-4.086 Y11.801 Z-1.500 F100
G1 X-3.740 Y11.640 Z-1.500 F100
G1 X-3.387 Y11.492 Z-1.500 F100
G1 X-3.028 Y11.360 Z-1.500 F100
G1 X-2.665 Y11.242 Z-1.500 F100
G1 X-2.296 Y11.140 Z-1.500 F100
G1 X-1.924 Y11.052 Z-1.500 F100
G1 X-1.548 Y10.981 Z-1.500 F100
G1 X-1.170 Y10.924 Z-1.500 F100
G1 X-0.790 Y10.884 Z-1.500 F100
G1 X-0.409 Y10.859 Z-1.500 F100
G1 X-0.026 Y10.850 Z-1.500 F100
G1 X0.356 Y10.857 Z-1.500 F100
G1 X0.738 Y10.879 Z-1.500 F100
G1 X1.118 Y10.918 Z-1.500 F100
G1 X1.497 Y10.972 Z-1.500 F100
G1 X1.872 Y11.042 Z-1.500 F100
G1 X2.245 Y11.127 Z-1.500 F100
G1 X2.614 Y11.227 Z-1.500 F100
G1 X2.979 Y11.343 Z-1.500 F100
G1 X3.338 Y11.473 Z-1.500 F100
G1 X3.692 Y11.619 Z-1.500 F100
G1 X4.039 Y11.778 Z-1.500 F100
G1 X4.379 Y11.952 Z-1.500 F100
G1 X4.712 Y12.140 Z-1.500 F100
G1 X5.037 Y12.342 Z-1.500 F100
G1 X5.354 Y12.557 Z-1.500 F100
G1 X5.661 Y12.784 Z-1.500 F100
G1 X5.958 Y13.024 Z-1.500 F100
G1 X6.245 Y13.277 Z-1.500 F100
G1 X6.522 Y13.541 Z-1.500 F100
G1 X6.788 Y13.816 Z-1.500 F100
G1 X7.041 Y14.102 Z-1.500 F100
G1 X7.283 Y14.398 Z-1.500 F100
G1 X7.513 Y14.704 Z-1.500 F100
G1 X7.729 Y15.019 Z-1.500 F100
G1 X7.933 Y15.342 Z-1.500 F100
G1 X8.123 Y15.674 Z-1.500 F100
G1 X8.299 Y16.014 Z-1.500 F100
G1 X8.460 Y16.360 Z-1.500 F100
G1 X8.608 Y16.713 Z-1.500 F100
G1 X8.740 Y17.072 Z-1.500 F100
G1 X8.858 Y17.435 Z-1.500 F100
G1 X8.960 Y17.804 Z-1.500 F100
G1 X9.048 Y18.176 Z-1.500 F100
G1 X9.119 Y18.552 Z-1.500 F100
G1 X9.176 Y18.930 Z-1.500 F100
G1 X9.216 Y19.310 Z-1.500 F100
G1 X9.241 Y19.691 Z-1.500 F100
G1 X9.250 Y20.074 Z-1.500 F100
G1 X9.243 Y20.456 Z-1.500 F100
G1 X9.221 Y20.838 Z-1.500 F100
G1 X9.182 Y21.218 Z-1.500 F100
G1 X9.128 Y21.597 Z-1.500 F100
G1 X9.058 Y21.972 Z-1.500 F100
G1 X8.973 Y22.345 Z-1.500 F100
G1 X8.873 Y22.714 Z-1.500 F100
G1 X8.757 Y23.079 Z-1.500 F100
G1 X8.627 Y23.438 Z-1.500 F100
G1 X8.481 Y23.792 Z-1.500 F100
G1 X8.322 Y24.139 Z-1.500 F100
G1 X8.148 Y24.479 Z-1.500 F100
G1 X7.960 Y24.812 Z-1.500 F100
G1 X7.758 Y25.137 Z-1.500 F100
G1 X7.543 Y25.454 Z-1.500 F100
G1 X7.316 Y25.761 Z-1.500 F100
G1 X7.076 Y26.058 Z-1.500 F100
G1 X6.823 Y26.345 Z-1.500 F100
G1 X6.559 Y26.622 Z-1.500 F100
G1 X6.284 Y26.888 Z-1.500 F100
G1 X5.998 Y27.141 Z-1.500 F100
G1 X5.702 Y27.383 Z-1.500 F100
G1 X5.396 Y27.613 Z-1.500 F100
G1 X5.363 Y27.631 Z-1.490 F3000
G1 X5.327 Y27.640 Z-1.480 F3000
G1 X5.300 Y27.641 Z-1.452 F3000
G1 X5.273 Y27.637 Z-1.425 F3000
G1 X5.254 Y27.630 Z-1.350 F3000
G0 X5.254 Y27.630 Z15.000
G0 X-17.531 Y-18.048 Z15.000
G0 X-17.531 Y-18.048 Z5.000
G1 X-17.531 Y-18.048 Z0.300 F40
G1 X-17.531 Y-18.048 Z-1.350 F100
G1 X-17.524 Y-18.046 Z-1.396 F100
G1 X-17.503 Y-18.040 Z-1.438 F100
G1 X-17.472 Y-18.029 Z-1.471 F100
G1 X-17.432 Y-18.016 Z-1.493 F100
G1 X-17.388 Y-18.002 Z-1.500 F100
G1 X-17.296 Y-17.964 Z-1.500 F100
G1 X-17.212 Y-17.912 Z-1.500 F100
G1 X-17.136 Y-17.848 Z-1.500 F100
G1 X-17.071 Y-17.772 Z-1.500 F100
G1 X-17.020 Y-17.687 Z-1.500 F100
G1 X-16.982 Y-17.596 Z-1.500 F100
G1 X-16.958 Y-17.499 Z-1.500 F100
G1 X-16.951 Y-17.400 Z-1.500 F100
G1 X-16.959 Y-17.127 Z-1.500 F100
G1 X-16.982 Y-16.854 Z-1.500 F100
G1 X-17.022 Y-16.584 Z-1.500 F100
G1 X-17.077 Y-16.316 Z-1.500 F100
G1 X-17.148 Y-16.052 Z-1.500 F100
G1 X-17.234 Y-15.793 Z-1.500 F100
G1 X-17.335 Y-15.538 Z-1.500 F100
G1 X-17.451 Y-15.291 Z-1.500 F100
G1 X-17.580 Y-15.050 Z-1.500 F100
G1 X-17.724 Y-14.817 Z-1.500 F100
G1 X-17.881 Y-14.593 Z-1.500 F100
G1 X-18.050 Y-14.379 Z-1.500 F100
G1 X-18.232 Y-14.175 Z-1.500 F100
G1 X-18.425 Y-13.981 Z-1.500 F100
G1 X-18.629 Y-13.800 Z-1.500 F100
G1 X-18.844 Y-13.630 Z-1.500 F100
G1 X-19.068 Y-13.473 Z-1.500 F100
G1 X-19.301 Y-13.330 Z-1.500 F100
G1 X-19.541 Y-13.200 Z-1.500 F100
G1 X-19.789 Y-13.084 Z-1.500 F100
G1 X-20.043 Y-12.983 Z-1.500 F100
G1 X-20.303 Y-12.897 Z-1.500 F100
G1 X-20.567 Y-12.827 Z-1.500 F100
G1 X-20.834 Y-12.771 Z-1.500 F100
G1 X-21.105 Y-12.732 Z-1.500 F100
G1 X-21.377 Y-12.708 Z-1.500 F100
G1 X-21.651 Y-12.700 Z-1.500 F100
G1 X-21.924 Y-12.708 Z-1.500 F100
G1 X-22.196 Y-12.732 Z-1.500 F100
G1 X-22.467 Y-12.771 Z-1.500 F100
G1 X-22.734 Y-12.827 Z-1.500 F100
G1 X-22.999 Y-12.897 Z-1.500 F100
G1 X-23.258 Y-12.983 Z-1.500 F100
G1 X-23.512 Y-13.084 Z-1.500 F100
G1 X-23.760 Y-13.200 Z-1.500 F100
G1 X-24.001 Y-13.330 Z-1.500 F100
G1 X-24.233 Y-13.473 Z-1.500 F100
G1 X-24.457 Y-13.630 Z-1.500 F100
G1 X-24.672 Y-13.800 Z-1.500 F100
G1 X-24.876 Y-13.981 Z-1.500 F100
G1 X-25.069 Y-14.175 Z-1.500 F100
G1 X-25.251 Y-14.379 Z-1.500 F100
G1 X-25.421 Y-14.593 Z-1.500 F100
G1 X-25.577 Y-14.817 Z-1.500 F100
G1 X-25.721 Y-15.050 Z-1.500 F100
G1 X-25.851 Y-15.291 Z-1.500 F100
G1 X-25.966 Y-15.538 Z-1.500 F100
G1 X-26.067 Y-15.793 Z-1.500 F100
G1 X-26.153 Y-16.052 Z-1.500 F100
G1 X-26.224 Y-16.316 Z-1.500 F100
G1 X-26.279 Y-16.584 Z-1.500 F100
G1 X-26.319 Y-16.854 Z-1.500 F100
G1 X-26.343 Y-17.127 Z-1.500 F100
G1 X-26.351 Y-17.400 Z-1.500 F100
G1 X-26.343 Y-17.673 Z-1.500 F100
G1 X-26.319 Y-17.946 Z-1.500 F100
G1 X-26.279 Y-18.216 Z-1.500 F100
G1 X-26.224 Y-18.484 Z-1.500 F100
G1 X-26.153 Y-18.748 Z-1.500 F100
G1 X-26.067 Y-19.007 Z-1.500 F100
G1 X-25.966 Y-19.262 Z-1.500 F100
G1 X-25.851 Y-19.509 Z-1.500 F100
G1 X-25.721 Y-19.750 Z-1.500 F100
G1 X-25.577 Y-19.983 Z-1.500 F100
G1 X-25.421 Y-20.207 Z-1.500 F100
G1 X-25.251 Y-20.421 Z-1.500 F100
G1 X-25.069 Y-20.625 Z-1.500 F100
G1 X-24.876 Y-20.819 Z-1.500 F100
G1 X-24.672 Y-21.000 Z-1.500 F100
G1 X-24.457 Y-21.170 Z-1.500 F100
G1 X-24.233 Y-21.327 Z-1.500 F100
G1 X-24.001 Y-21.470 Z-1.500 F100
G1 X-23.760 Y-21.600 Z-1.500 F100
G1 X-23.512 Y-21.716 Z-1.500 F100
G1 X-23.258 Y-21.817 Z-1.500 F100
G1 X-22.999 Y-21.903 Z-1.500 F100
G1 X-22.734 Y-21.973 Z-1.500 F100
G1 X-22.467 Y-22.029 Z-1.500 F100
G1 X-22.196 Y-22.068 Z-1.500 F100
G1 X-21.924 Y-22.092 Z-1.500 F100
G1 X-21.651 Y-22.100 Z-1.500 F100
G1 X-21.377 Y-22.092 Z-1.500 F100
G1 X-21.105 Y-22.068 Z-1.500 F100
G1 X-20.834 Y-22.029 Z-1.500 F100
G1 X-20.567 Y-21.973 Z-1.500 F100
G1 X-20.303 Y-21.903 Z-1.500 F100
G1 X-20.043 Y-21.817 Z-1.500 F100
G1 X-19.789 Y-21.716 Z-1.500 F100
G1 X-19.541 Y-21.600 Z-1.500 F100
G1 X-19.301 Y-21.470 Z-1.500 F100
G1 X-19.068 Y-21.327 Z-1.500 F100
G1 X-18.844 Y-21.170 Z-1.500 F100
G1 X-18.629 Y-21.000 Z-1.500 F100
G1 X-18.425 Y-20.819 Z-1.500 F100
G1 X-18.232 Y-20.625 Z-1.500 F100
G1 X-18.050 Y-20.421 Z-1.500 F100
G1 X-17.881 Y-20.207 Z-1.500 F100
G1 X-17.724 Y-19.983 Z-1.500 F100
G1 X-17.580 Y-19.750 Z-1.500 F100
G1 X-17.451 Y-19.509 Z-1.500 F100
G1 X-17.335 Y-19.262 Z-1.500 F100
G1 X-17.234 Y-19.007 Z-1.500 F100
G1 X-17.148 Y-18.748 Z-1.500 F100
G1 X-17.077 Y-18.484 Z-1.500 F100
G1 X-17.022 Y-18.216 Z-1.500 F100
G1 X-16.982 Y-17.946 Z-1.500 F100
G1 X-16.959 Y-17.673 Z-1.500 F100
G1 X-16.951 Y-17.400 Z-1.500 F100
G1 X-16.943 Y-17.299 Z-1.500 F100
G1 X-16.922 Y-17.201 Z-1.500 F100
G1 X-16.887 Y-17.106 Z-1.500 F100
G1 X-16.840 Y-17.018 Z-1.500 F100
G1 X-16.780 Y-16.936 Z-1.500 F100
G1 X-16.709 Y-16.864 Z-1.500 F100
G1 X-16.629 Y-16.803 Z-1.500 F100
G1 X-16.541 Y-16.754 Z-1.500 F100
G1 X-16.461 Y-16.708 Z-1.500 F100
G1 X-16.389 Y-16.651 Z-1.500 F100
G1 X-16.327 Y-16.584 Z-1.500 F100
G1 X-16.275 Y-16.508 Z-1.500 F100
G1 X-16.236 Y-16.425 Z-1.500 F100
G1 X-16.209 Y-16.337 Z-1.500 F100
G1 X-16.196 Y-16.246 Z-1.500 F100
G1 X-16.197 Y-16.154 Z-1.500 F100
G1 X-16.213 Y-16.063 Z-1.500 F100
G1 X-16.291 Y-15.776 Z-1.500 F100
G1 X-16.385 Y-15.493 Z-1.500 F100
G1 X-16.494 Y-15.215 Z-1.500 F100
G1 X-16.618 Y-14.944 Z-1.500 F100
G1 X-16.756 Y-14.679 Z-1.500 F100
G1 X-16.908 Y-14.423 Z-1.500 F100
G1 X-17.073 Y-14.175 Z-1.500 F100
G1 X-17.251 Y-13.935 Z-1.500 F100
G1 X-17.442 Y-13.706 Z-1.500 F100
G1 X-17.644 Y-13.487 Z-1.500 F100
G1 X-17.858 Y-13.280 Z-1.500 F100
G1 X-18.083 Y-13.084 Z-1.500 F100
G1 X-18.318 Y-12.900 Z-1.500 F100
G1 X-18.562 Y-12.729 Z-1.500 F100
G1 X-18.815 Y-12.571 Z-1.500 F100
G1 X-19.076 Y-12.427 Z-1.500 F100
G1 X-19.344 Y-12.297 Z-1.500 F100
G1 X-19.619 Y-12.182 Z-1.500 F100
G1 X-19.900 Y-12.081 Z-1.500 F100
G1 X-20.185 Y-11.995 Z-1.500 F100
G1 X-20.475 Y-11.925 Z-1.500 F100
G1 X-20.768 Y-11.870 Z-1.500 F100
G1 X-21.063 Y-11.831 Z-1.500 F100
G1 X-21.361 Y-11.808 Z-1.500 F100
G1 X-21.659 Y-11.800 Z-1.500 F100
G1 X-21.957 Y-11.808 Z-1.500 F100
G1 X-22.254 Y-11.833 Z-1.500 F100
G1 X-22.549 Y-11.873 Z-1.500 F100
G1 X-22.842 Y-11.928 Z-1.500 F100
G1 X-23.132 Y-11.999 Z-1.500 F100
G1 X-23.417 Y-12.086 Z-1.500 F100
G1 X-23.698 Y-12.187 Z-1.500 F100
G1 X-23.972 Y-12.304 Z-1.500 F100
G1 X-24.240 Y-12.435 Z-1.500 F100
G1 X-24.501 Y-12.579 Z-1.500 F100
G1 X-24.753 Y-12.738 Z-1.500 F100
G1 X-24.997 Y-12.910 Z-1.500 F100
G1 X-25.231 Y-13.094 Z-1.500 F100
G1 X-25.455 Y-13.291 Z-1.500 F100
G1 X-25.668 Y-13.499 Z-1.500 F100
G1 X-25.870 Y-13.718 Z-1.500 F100
G1 X-26.060 Y-13.948 Z-1.500 F100
G1 X-26.238 Y-14.188 Z-1.500 F100
G1 X-26.402 Y-14.437 Z-1.500 F100
G1 X-26.553 Y-14.694 Z-1.500 F100
G1 X-26.690 Y-14.958 Z-1.500 F100
G1 X-26.813 Y-15.230 Z-1.500 F100
G1 X-26.921 Y-15.508 Z-1.500 F100
G1 X-27.015 Y-15.791 Z-1.500 F100
G1 X-27.093 Y-16.079 Z-1.500 F100
G1 X-27.155 Y-16.370 Z-1.500 F100
G1 X-27.202 Y-16.665 Z-1.500 F100
G1 X-27.233 Y-16.961 Z-1.500 F100
G1 X-27.249 Y-17.259 Z-1.500 F100
G1 X-27.248 Y-17.557 Z-1.500 F100
G1 X-27.232 Y-17.855 Z-1.500 F100
G1 X-27.200 Y-18.151 Z-1.500 F100
G1 X-27.152 Y-18.446 Z-1.500 F100
G1 X-27.089 Y-18.737 Z-1.500 F100
G1 X-27.010 Y-19.024 Z-1.500 F100
G1 X-26.916 Y-19.307 Z-1.500 F100
G1 X-26.807 Y-19.585 Z-1.500 F100
G1 X-26.683 Y-19.856 Z-1.500 F100
G1 X-26.545 Y-20.121 Z-1.500 F100
G1 X-26.394 Y-20.377 Z-1.500 F100
G1 X-26.228 Y-20.625 Z-1.500 F100
G1 X-26.050 Y-20.865 Z-1.500 F100
G1 X-25.860 Y-21.094 Z-1.500 F100
G1 X-25.657 Y-21.313 Z-1.500 F100
G1 X-25.443 Y-21.520 Z-1.500 F100
G1 X-25.218 Y-21.716 Z-1.500 F100
G1 X-24.984 Y-21.900 Z-1.500 F100
G1 X-24.739 Y-22.071 Z-1.500 F100
G1 X-24.486 Y-22.229 Z-1.500 F100
G1 X-24.225 Y-22.373 Z-1.500 F100
G1 X-23.957 Y-22.503 Z-1.500 F100
G1 X-23.682 Y-22.618 Z-1.500 F100
G1 X-23.402 Y-22.719 Z-1.500 F100
G1 X-23.116 Y-22.805 Z-1.500 F100
G1 X-22.826 Y-22.875 Z-1.500 F100
G1 X-22.533 Y-22.930 Z-1.500 F100
G1 X-22.238 Y-22.969 Z-1.500 F100
G1 X-21.940 Y-22.992 Z-1.500 F100
G1 X-21.642 Y-23.000 Z-1.500 F100
G1 X-21.344 Y-22.992 Z-1.500 F100
G1 X-21.047 Y-22.967 Z-1.500 F100
G1 X-20.752 Y-22.927 Z-1.500 F100
G1 X-20.459 Y-22.872 Z-1.500 F100
G1 X-20.169 Y-22.801 Z-1.500 F100
G1 X-19.884 Y-22.714 Z-1.500 F100
G1 X-19.604 Y-22.613 Z-1.500 F100
G1 X-19.329 Y-22.496 Z-1.500 F100
G1 X-19.061 Y-22.365 Z-1.500 F100
G1 X-18.801 Y-22.221 Z-1.500 F100
G1 X-18.548 Y-22.062 Z-1.500 F100
G1 X-18.304 Y-21.890 Z-1.500 F100
G1 X-18.070 Y-21.706 Z-1.500 F100
G1 X-17.846 Y-21.509 Z-1.500 F100
G1 X-17.633 Y-21.301 Z-1.500 F100
G1 X-17.431 Y-21.082 Z-1.500 F100
G1 X-17.241 Y-20.852 Z-1.500 F100
G1 X-17.063 Y-20.612 Z-1.500 F100
G1 X-16.899 Y-20.363 Z-1.500 F100
G1 X-16.748 Y-20.106 Z-1.500 F100
G1 X-16.611 Y-19.842 Z-1.500 F100
G1 X-16.488 Y-19.570 Z-1.500 F100
G1 X-16.380 Y-19.292 Z-1.500 F100
G1 X-16.287 Y-19.009 Z-1.500 F100
G1 X-16.209 Y-18.721 Z-1.500 F100
G1 X-16.146 Y-18.430 Z-1.500 F100
G1 X-16.099 Y-18.135 Z-1.500 F100
G1 X-16.068 Y-17.839 Z-1.500 F100
G1 X-16.052 Y-17.541 Z-1.500 F100
G1 X-16.053 Y-17.243 Z-1.500 F100
G1 X-16.069 Y-16.945 Z-1.500 F100
G1 X-16.101 Y-16.649 Z-1.500 F100
G1 X-16.149 Y-16.354 Z-1.500 F100
G1 X-16.213 Y-16.063 Z-1.500 F100
G1 X-16.230 Y-15.963 Z-1.500 F100
G1 X-16.233 Y-15.861 Z-1.500 F100
G1 X-16.221 Y-15.760 Z-1.500 F100
G1 X-16.195 Y-15.662 Z-1.500 F100
G1 X-16.156 Y-15.568 Z-1.500 F100
G1 X-16.104 Y-15.480 Z-1.500 F100
G1 X-16.039 Y-15.401 Z-1.500 F100
G1 X-15.965 Y-15.332 Z-1.500 F100
G1 X-15.897 Y-15.269 Z-1.500 F100
G1 X-15.840 Y-15.197 Z-1.500 F100
G1 X-15.794 Y-15.117 Z-1.500 F100
G1 X-15.760 Y-15.031 Z-1.500 F100
G1 X-15.740 Y-14.940 Z-1.500 F100
G1 X-15.733 Y-14.848 Z-1.500 F100
G1 X-15.740 Y-14.756 Z-1.500 F100
G1 X-15.760 Y-14.666 Z-1.500 F100
G1 X-15.794 Y-14.580 Z-1.500 F100
G1 X-15.941 Y-14.294 Z-1.500 F100
G1 X-16.101 Y-14.015 Z-1.500 F100
G1 X-16.276 Y-13.745 Z-1.500 F100
G1 X-16.463 Y-13.484 Z-1.500 F100
G1 X-16.663 Y-13.232 Z-1.500 F100
G1 X-16.875 Y-12.990 Z-1.500 F100
G1 X-17.099 Y-12.760 Z-1.500 F100
G1 X-17.334 Y-12.540 Z-1.500 F100
G1 X-17.580 Y-12.333 Z-1.500 F100
G1 X-17.835 Y-12.137 Z-1.500 F100
G1 X-18.100 Y-11.955 Z-1.500 F100
G1 X-18.374 Y-11.786 Z-1.500 F100
G1 X-18.656 Y-11.631 Z-1.500 F100
G1 X-18.944 Y-11.490 Z-1.500 F100
G1 X-19.240 Y-11.363 Z-1.500 F100
G1 X-19.542 Y-11.252 Z-1.500 F100
G1 X-19.848 Y-11.155 Z-1.500 F100
G1 X-20.159 Y-11.073 Z-1.500 F100
G1 X-20.474 Y-11.007 Z-1.500 F100
G1 X-20.792 Y-10.957 Z-1.500 F100
G1 X-21.111 Y-10.922 Z-1.500 F100
G1 X-21.432 Y-10.904 Z-1.500 F100
G1 X-21.754 Y-10.901 Z-1.500 F100
G1 X-22.075 Y-10.914 Z-1.500 F100
G1 X-22.395 Y-10.943 Z-1.500 F100
G1 X-22.714 Y-10.988 Z-1.500 F100
G1 X-23.030 Y-11.048 Z-1.500 F100
G1 X-23.342 Y-11.124 Z-1.500 F100
G1 X-23.650 Y-11.215 Z-1.500 F100
G1 X-23.954 Y-11.322 Z-1.500 F100
G1 X-24.251 Y-11.443 Z-1.500 F100
G1 X-24.543 Y-11.579 Z-1.500 F100
G1 X-24.827 Y-11.729 Z-1.500 F100
G1 X-25.104 Y-11.893 Z-1.500 F100
G1 X-25.372 Y-12.071 Z-1.500 F100
G1 X-25.631 Y-12.261 Z-1.500 F100
G1 X-25.880 Y-12.464 Z-1.500 F100
G1 X-26.119 Y-12.680 Z-1.500 F100
G1 X-26.347 Y-12.906 Z-1.500 F100
G1 X-26.564 Y-13.144 Z-1.500 F100
G1 X-26.768 Y-13.392 Z-1.500 F100
G1 X-26.960 Y-13.650 Z-1.500 F100
G1 X-27.139 Y-13.917 Z-1.500 F100
G1 X-27.304 Y-14.193 Z-1.500 F100
G1 X-27.456 Y-14.477 Z-1.500 F100
G1 X-27.594 Y-14.767 Z-1.500 F100
G1 X-27.716 Y-15.064 Z-1.500 F100
G1 X-27.825 Y-15.367 Z-1.500 F100
G1 X-27.918 Y-15.675 Z-1.500 F100
G1 X-27.995 Y-15.987 Z-1.500 F100
G1 X-28.057 Y-16.302 Z-1.500 F100
G1 X-28.104 Y-16.621 Z-1.500 F100
G1 X-28.134 Y-16.941 Z-1.500 F100
G1 X-28.149 Y-17.262 Z-1.500 F100
G1 X-28.148 Y-17.584 Z-1.500 F100
G1 X-28.131 Y-17.905 Z-1.500 F100
G1 X-28.098 Y-18.224 Z-1.500 F100
G1 X-28.049 Y-18.542 Z-1.500 F100
G1 X-27.985 Y-18.857 Z-1.500 F100
G1 X-27.905 Y-19.169 Z-1.500 F100
G1 X-27.810 Y-19.476 Z-1.500 F100
G1 X-27.700 Y-19.778 Z-1.500 F100
G1 X-27.575 Y-20.074 Z-1.500 F100
G1 X-27.435 Y-20.364 Z-1.500 F100
G1 X-27.282 Y-20.646 Z-1.500 F100
G1 X-27.114 Y-20.921 Z-1.500 F100
G1 X-26.934 Y-21.187 Z-1.500 F100
G1 X-26.740 Y-21.444 Z-1.500 F100
G1 X-26.534 Y-21.690 Z-1.500 F100
G1 X-26.315 Y-21.926 Z-1.500 F100
G1 X-26.086 Y-22.152 Z-1.500 F100
G1 X-25.845 Y-22.365 Z-1.500 F100
G1 X-25.595 Y-22.567 Z-1.500 F100
G1 X-25.334 Y-22.755 Z-1.500 F100
G1 X-25.065 Y-22.931 Z-1.500 F100
G1 X-24.787 Y-23.093 Z-1.500 F100
G1 X-24.502 Y-23.241 Z-1.500 F100
G1 X-24.210 Y-23.375 Z-1.500 F100
G1 X-23.911 Y-23.494 Z-1.500 F100
G1 X-23.607 Y-23.599 Z-1.500 F100
G1 X-23.298 Y-23.688 Z-1.500 F100
G1 X-22.985 Y-23.762 Z-1.500 F100
G1 X-22.669 Y-23.820 Z-1.500 F100
G1 X-22.350 Y-23.862 Z-1.500 F100
G1 X-22.030 Y-23.889 Z-1.500 F100
G1 X-21.708 Y-23.900 Z-1.500 F100
G1 X-21.387 Y-23.895 Z-1.500 F100
G1 X-21.066 Y-23.874 Z-1.500 F100
G1 X-20.746 Y-23.837 Z-1.500 F100
G1 X-20.429 Y-23.784 Z-1.500 F100
G1 X-20.115 Y-23.716 Z-1.500 F100
G1 X-19.805 Y-23.632 Z-1.500 F100
G1 X-19.499 Y-23.533 Z-1.500 F100
G1 X-19.198 Y-23.419 Z-1.500 F100
G1 X-18.903 Y-23.291 Z-1.500 F100
G1 X-18.615 Y-23.148 Z-1.500 F100
G1 X-18.335 Y-22.991 Z-1.500 F100
G1 X-18.062 Y-22.820 Z-1.500 F100
G1 X-17.799 Y-22.636 Z-1.500 F100
G1 X-17.544 Y-22.439 Z-1.500 F100
G1 X-17.300 Y-22.230 Z-1.500 F100
G1 X-17.067 Y-22.009 Z-1.500 F100
G1 X-16.844 Y-21.776 Z-1.500 F100
G1 X-16.634 Y-21.533 Z-1.500 F100
G1 X-16.436 Y-21.280 Z-1.500 F100
G1 X-16.250 Y-21.017 Z-1.500 F100
G1 X-16.078 Y-20.746 Z-1.500 F100
G1 X-15.919 Y-20.466 Z-1.500 F100
G1 X-15.775 Y-20.179 Z-1.500 F100
G1 X-15.644 Y-19.885 Z-1.500 F100
G1 X-15.529 Y-19.585 Z-1.500 F100
G1 X-15.428 Y-19.280 Z-1.500 F100
G1 X-15.343 Y-18.969 Z-1.500 F100
G1 X-15.273 Y-18.656 Z-1.500 F100
G1 X-15.219 Y-18.339 Z-1.500 F100
G1 X-15.180 Y-18.019 Z-1.500 F100
G1 X-15.157 Y-17.699 Z-1.500 F100
G1 X-15.151 Y-17.377 Z-1.500 F100
G1 X-15.160 Y-17.056 Z-1.500 F100
G1 X-15.185 Y-16.735 Z-1.500 F100
G1 X-15.225 Y-16.416 Z-1.500 F100
G1 X-15.282 Y-16.100 Z-1.500 F100
G1 X-15.354 Y-15.786 Z-1.500 F100
G1 X-15.442 Y-15.477 Z-1.500 F100
G1 X-15.544 Y-15.172 Z-1.500 F100
G1 X-15.662 Y-14.873 Z-1.500 F100
G1 X-15.794 Y-14.580 Z-1.500 F100
G1 X-15.832 Y-14.485 Z-1.500 F100
G1 X-15.856 Y-14.385 Z-1.500 F100
G1 X-15.865 Y-14.283 Z-1.500 F100
G1 X-15.860 Y-14.181 Z-1.500 F100
G1 X-15.840 Y-14.080 Z-1.500 F100
G1 X-15.807 Y-13.984 Z-1.500 F100
G1 X-15.760 Y-13.893 Z-1.500 F100
G1 X-15.700 Y-13.809 Z-1.500 F100
G1 X-15.646 Y-13.734 Z-1.500 F100
G1 X-15.604 Y-13.651 Z-1.500 F100
G1 X-15.574 Y-13.563 Z-1.500 F100
G1 X-15.558 Y-13.472 Z-1.500 F100
G1 X-15.555 Y-13.379 Z-1.500 F100
G1 X-15.566 Y-13.287 Z-1.500 F100
G1 X-15.590 Y-13.197 Z-1.500 F100
G1 X-15.627 Y-13.112 Z-1.500 F100
G1 X-15.676 Y-13.033 Z-1.500 F100
G1 X-15.884 Y-12.762 Z-1.500 F100
G1 X-16.105 Y-12.501 Z-1.500 F100
G1 X-16.337 Y-12.250 Z-1.500 F100
G1 X-16.581 Y-12.010 Z-1.500 F100
G1 X-16.835 Y-11.781 Z-1.500 F100
G1 X-17.100 Y-11.565 Z-1.500 F100
G1 X-17.374 Y-11.361 Z-1.500 F100
G1 X-17.657 Y-11.170 Z-1.500 F100
G1 X-17.949 Y-10.992 Z-1.500 F100
G1 X-18.249 Y-10.828 Z-1.500 F100
G1 X-18.556 Y-10.678 Z-1.500 F100
G1 X-18.870 Y-10.542 Z-1.500 F100
G1 X-19.190 Y-10.421 Z-1.500 F100
G1 X-19.515 Y-10.315 Z-1.500 F100
G1 X-19.844 Y-10.224 Z-1.500 F100
G1 X-20.178 Y-10.148 Z-1.500 F100
G1 X-20.514 Y-10.088 Z-1.500 F100
G1 X-20.853 Y-10.043 Z-1.500 F100
G1 X-21.194 Y-10.014 Z-1.500 F100
G1 X-21.535 Y-10.001 Z-1.500 F100
G1 X-21.877 Y-10.003 Z-1.500 F100
G1 X-22.218 Y-10.022 Z-1.500 F100
G1 X-22.558 Y-10.056 Z-1.500 F100
G1 X-22.897 Y-10.106 Z-1.500 F100
G1 X-23.232 Y-10.171 Z-1.500 F100
G1 X-23.564 Y-10.252 Z-1.500 F100
G1 X-23.893 Y-10.348 Z-1.500 F100
G1 X-24.216 Y-10.459 Z-1.500 F100
G1 X-24.534 Y-10.585 Z-1.500 F100
G1 X-24.845 Y-10.725 Z-1.500 F100
G1 X-25.150 Y-10.880 Z-1.500 F100
G1 X-25.448 Y-11.048 Z-1.500 F100
G1 X-25.737 Y-11.231 Z-1.500 F100
G1 X-26.017 Y-11.426 Z-1.500 F100
G1 X-26.289 Y-11.634 Z-1.500 F100
G1 X-26.550 Y-11.854 Z-1.500 F100
G1 X-26.801 Y-12.086 Z-1.500 F100
G1 X-27.041 Y-12.330 Z-1.500 F100
G1 X-27.269 Y-12.584 Z-1.500 F100
G1 X-27.486 Y-12.849 Z-1.500 F100
G1 X-27.690 Y-13.123 Z-1.500 F100
G1 X-27.881 Y-13.407 Z-1.500 F100
G1 X-28.058 Y-13.699 Z-1.500 F100
G1 X-28.223 Y-13.999 Z-1.500 F100
G1 X-28.373 Y-14.306 Z-1.500 F100
G1 X-28.508 Y-14.619 Z-1.500 F100
G1 X-28.629 Y-14.939 Z-1.500 F100
G1 X-28.736 Y-15.264 Z-1.500 F100
G1 X-28.827 Y-15.594 Z-1.500 F100
G1 X-28.903 Y-15.927 Z-1.500 F100
G1 X-28.963 Y-16.263 Z-1.500 F100
G1 X-29.007 Y-16.602 Z-1.500 F100
G1 X-29.036 Y-16.943 Z-1.500 F100
G1 X-29.050 Y-17.285 Z-1.500 F100
G1 X-29.047 Y-17.626 Z-1.500 F100
G1 X-29.029 Y-17.968 Z-1.500 F100
G1 X-28.995 Y-18.308 Z-1.500 F100
G1 X-28.945 Y-18.646 Z-1.500 F100
G1 X-28.880 Y-18.982 Z-1.500 F100
G1 X-28.799 Y-19.314 Z-1.500 F100
G1 X-28.703 Y-19.642 Z-1.500 F100
G1 X-28.592 Y-19.965 Z-1.500 F100
G1 X-28.466 Y-20.283 Z-1.500 F100
G1 X-28.325 Y-20.595 Z-1.500 F100
G1 X-28.171 Y-20.900 Z-1.500 F100
G1 X-28.002 Y-21.197 Z-1.500 F100
G1 X-27.820 Y-21.486 Z-1.500 F100
G1 X-27.625 Y-21.767 Z-1.500 F100
G1 X-27.417 Y-22.038 Z-1.500 F100
G1 X-27.196 Y-22.299 Z-1.500 F100
G1 X-26.964 Y-22.550 Z-1.500 F100
G1 X-26.721 Y-22.790 Z-1.500 F100
G1 X-26.466 Y-23.019 Z-1.500 F100
G1 X-26.202 Y-23.235 Z-1.500 F100
G1 X-25.927 Y-23.439 Z-1.500 F100
G1 X-25.644 Y-23.630 Z-1.500 F100
G1 X-25.352 Y-23.808 Z-1.500 F100
G1 X-25.052 Y-23.972 Z-1.500 F100
G1 X-24.745 Y-24.122 Z-1.500 F100
G1 X-24.431 Y-24.258 Z-1.500 F100
G1 X-24.111 Y-24.379 Z-1.500 F100
G1 X-23.787 Y-24.485 Z-1.500 F100
G1 X-23.457 Y-24.576 Z-1.500 F100
G1 X-23.124 Y-24.652 Z-1.500 F100
G1 X-22.787 Y-24.712 Z-1.500 F100
G1 X-22.448 Y-24.757 Z-1.500 F100
G1 X-22.108 Y-24.786 Z-1.500 F100
G1 X-21.766 Y-24.799 Z-1.500 F100
G1 X-21.424 Y-24.797 Z-1.500 F100
G1 X-21.083 Y-24.778 Z-1.500 F100
G1 X-20.743 Y-24.744 Z-1.500 F100
G1 X-20.405 Y-24.694 Z-1.500 F100
G1 X-20.069 Y-24.629 Z-1.500 F100
G1 X-19.737 Y-24.548 Z-1.500 F100
G1 X-19.409 Y-24.452 Z-1.500 F100
G1 X-19.085 Y-24.341 Z-1.500 F100
G1 X-18.768 Y-24.215 Z-1.500 F100
G1 X-18.456 Y-24.075 Z-1.500 F100
G1 X-18.151 Y-23.920 Z-1.500 F100
G1 X-17.854 Y-23.752 Z-1.500 F100
G1 X-17.564 Y-23.569 Z-1.500 F100
G1 X-17.284 Y-23.374 Z-1.500 F100
G1 X-17.013 Y-23.166 Z-1.500 F100
G1 X-16.751 Y-22.946 Z-1.500 F100
G1 X-16.500 Y-22.714 Z-1.500 F100
G1 X-16.260 Y-22.470 Z-1.500 F100
G1 X-16.032 Y-22.216 Z-1.500 F100
G1 X-15.816 Y-21.951 Z-1.500 F100
G1 X-15.612 Y-21.677 Z-1.500 F100
G1 X-15.421 Y-21.393 Z-1.500 F100
G1 X-15.243 Y-21.101 Z-1.500 F100
G1 X-15.079 Y-20.801 Z-1.500 F100
G1 X-14.929 Y-20.494 Z-1.500 F100
G1 X-14.793 Y-20.181 Z-1.500 F100
G1 X-14.672 Y-19.861 Z-1.500 F100
G1 X-14.566 Y-19.536 Z-1.500 F100
G1 X-14.474 Y-19.206 Z-1.500 F100
G1 X-14.399 Y-18.873 Z-1.500 F100
G1 X-14.338 Y-18.537 Z-1.500 F100
G1 X-14.294 Y-18.198 Z-1.500 F100
G1 X-14.265 Y-17.857 Z-1.500 F100
G1 X-14.252 Y-17.515 Z-1.500 F100
G1 X-14.254 Y-17.174 Z-1.500 F100
G1 X-14.272 Y-16.832 Z-1.500 F100
G1 X-14.307 Y-16.492 Z-1.500 F100
G1 X-14.356 Y-16.154 Z-1.500 F100
G1 X-14.422 Y-15.818 Z-1.500 F100
G1 X-14.502 Y-15.486 Z-1.500 F100
G1 X-14.598 Y-15.158 Z-1.500 F100
G1 X-14.709 Y-14.835 Z-1.500 F100
G1 X-14.835 Y-14.517 Z-1.500 F100
G1 X-14.976 Y-14.205 Z-1.500 F100
G1 X-15.130 Y-13.900 Z-1.500 F100
G1 X-15.299 Y-13.603 Z-1.500 F100
G1 X-15.481 Y-13.314 Z-1.500 F100
G1 X-15.676 Y-13.033 Z-1.500 F100
G1 X-15.731 Y-12.946 Z-1.500 F100
G1 X-15.773 Y-12.852 Z-1.500 F100
G1 X-15.801 Y-12.753 Z-1.500 F100
G1 X-15.814 Y-12.650 Z-1.500 F100
G1 X-15.813 Y-12.548 Z-1.500 F100
G1 X-15.797 Y-12.446 Z-1.500 F100
G1 X-15.766 Y-12.347 Z-1.500 F100
G1 X-15.722 Y-12.254 Z-1.500 F100
G1 X-15.683 Y-12.170 Z-1.500 F100
G1 X-15.656 Y-12.081 Z-1.500 F100
G1 X-15.642 Y-11.989 Z-1.500 F100
G1 X-15.641 Y-11.896 Z-1.500 F100
G1 X-15.654 Y-11.804 Z-1.500 F100
G1 X-15.680 Y-11.714 Z-1.500 F100
G1 X-15.719 Y-11.630 Z-1.500 F100
G1 X-15.770 Y-11.552 Z-1.500 F100
G1 X-15.831 Y-11.482 Z-1.500 F100
G1 X-16.095 Y-11.233 Z-1.500 F100
G1 X-16.369 Y-10.997 Z-1.500 F100
G1 X-16.654 Y-10.773 Z-1.500 F100
G1 X-16.948 Y-10.561 Z-1.500 F100
G1 X-17.250 Y-10.362 Z-1.500 F100
G1 X-17.561 Y-10.177 Z-1.500 F100
G1 X-17.880 Y-10.006 Z-1.500 F100
G1 X-18.207 Y-9.848 Z-1.500 F100
G1 X-18.539 Y-9.705 Z-1.500 F100
G1 X-18.878 Y-9.577 Z-1.500 F100
G1 X-19.222 Y-9.463 Z-1.500 F100
G1 X-19.570 Y-9.365 Z-1.500 F100
G1 X-19.923 Y-9.282 Z-1.500 F100
G1 X-20.278 Y-9.214 Z-1.500 F100
G1 X-20.637 Y-9.162 Z-1.500 F100
G1 X-20.997 Y-9.126 Z-1.500 F100
G1 X-21.359 Y-9.105 Z-1.500 F100
G1 X-21.721 Y-9.100 Z-1.500 F100
G1 X-22.083 Y-9.111 Z-1.500 F100
G1 X-22.444 Y-9.138 Z-1.500 F100
G1 X-22.803 Y-9.180 Z-1.500 F100
G1 X-23.161 Y-9.239 Z-1.500 F100
G1 X-23.515 Y-9.312 Z-1.500 F100
G1 X-23.866 Y-9.401 Z-1.500 F100
G1 X-24.213 Y-9.506 Z-1.500 F100
G1 X-24.555 Y-9.625 Z-1.500 F100
G1 X-24.892 Y-9.759 Z-1.500 F100
G1 X-25.222 Y-9.908 Z-1.500 F100
G1 X-25.545 Y-10.070 Z-1.500 F100
G1 X-25.861 Y-10.247 Z-1.500 F100
G1 X-26.169 Y-10.438 Z-1.500 F100
G1 X-26.469 Y-10.642 Z-1.500 F100
G1 X-26.759 Y-10.858 Z-1.500 F100
G1 X-27.039 Y-11.087 Z-1.500 F100
G1 X-27.309 Y-11.328 Z-1.500 F100
G1 X-27.569 Y-11.581 Z-1.500 F100
G1 X-27.817 Y-11.845 Z-1.500 F100
G1 X-28.054 Y-12.119 Z-1.500 F100
G1 X-28.278 Y-12.403 Z-1.500 F100
G1 X-28.490 Y-12.697 Z-1.500 F100
G1 X-28.688 Y-13.000 Z-1.500 F100
G1 X-28.873 Y-13.311 Z-1.500 F100
G1 X-29.045 Y-13.630 Z-1.500 F100
G1 X-29.202 Y-13.956 Z-1.500 F100
G1 X-29.345 Y-14.289 Z-1.500 F100
G1 X-29.474 Y-14.627 Z-1.500 F100
G1 X-29.587 Y-14.971 Z-1.500 F100
G1 X-29.686 Y-15.320 Z-1.500 F100
G1 X-29.769 Y-15.672 Z-1.500 F100
G1 X-29.836 Y-16.028 Z-1.500 F100
G1 X-29.888 Y-16.386 Z-1.500 F100
G1 X-29.925 Y-16.746 Z-1.500 F100
G1 X-29.945 Y-17.108 Z-1.500 F100
G1 X-29.950 Y-17.470 Z-1.500 F100
G1 X-29.939 Y-17.832 Z-1.500 F100
G1 X-29.913 Y-18.193 Z-1.500 F100
G1 X-29.870 Y-18.553 Z-1.500 F100
G1 X-29.812 Y-18.910 Z-1.500 F100
G1 X-29.738 Y-19.265 Z-1.500 F100
G1 X-29.649 Y-19.616 Z-1.500 F100
G1 X-29.545 Y-19.963 Z-1.500 F100
G1 X-29.426 Y-20.305 Z-1.500 F100
G1 X-29.292 Y-20.641 Z-1.500 F100
G1 X-29.143 Y-20.971 Z-1.500 F100
G1 X-28.980 Y-21.295 Z-1.500 F100
G1 X-28.803 Y-21.611 Z-1.500 F100
G1 X-28.613 Y-21.919 Z-1.500 F100
G1 X-28.409 Y-22.218 Z-1.500 F100
G1 X-28.193 Y-22.508 Z-1.500 F100
G1 X-27.963 Y-22.789 Z-1.500 F100
G1 X-27.722 Y-23.059 Z-1.500 F100
G1 X-27.470 Y-23.318 Z-1.500 F100
G1 X-27.206 Y-23.567 Z-1.500 F100
G1 X-26.932 Y-23.803 Z-1.500 F100
G1 X-26.648 Y-24.027 Z-1.500 F100
G1 X-26.354 Y-24.239 Z-1.500 F100
G1 X-26.051 Y-24.438 Z-1.500 F100
G1 X-25.740 Y-24.623 Z-1.500 F100
G1 X-25.421 Y-24.794 Z-1.500 F100
G1 X-25.095 Y-24.952 Z-1.500 F100
G1 X-24.762 Y-25.095 Z-1.500 F100
G1 X-24.423 Y-25.223 Z-1.500 F100
G1 X-24.079 Y-25.337 Z-1.500 F100
G1 X-23.731 Y-25.435 Z-1.500 F100
G1 X-23.379 Y-25.518 Z-1.500 F100
G1 X-23.023 Y-25.586 Z-1.500 F100
G1 X-22.664 Y-25.638 Z-1.500 F100
G1 X-22.304 Y-25.674 Z-1.500 F100
G1 X-21.943 Y-25.695 Z-1.500 F100
G1 X-21.580 Y-25.700 Z-1.500 F100
G1 X-21.219 Y-25.689 Z-1.500 F100
G1 X-20.857 Y-25.662 Z-1.500 F100
G1 X-20.498 Y-25.620 Z-1.500 F100
G1 X-20.140 Y-25.561 Z-1.500 F100
G1 X-19.786 Y-25.488 Z-1.500 F100
G1 X-19.435 Y-25.399 Z-1.500 F100
G1 X-19.088 Y-25.294 Z-1.500 F100
G1 X-18.746 Y-25.175 Z-1.500 F100
G1 X-18.410 Y-25.041 Z-1.500 F100
G1 X-18.079 Y-24.892 Z-1.500 F100
G1 X-17.756 Y-24.730 Z-1.500 F100
G1 X-17.440 Y-24.553 Z-1.500 F100
G1 X-17.132 Y-24.362 Z-1.500 F100
G1 X-16.833 Y-24.158 Z-1.500 F100
G1 X-16.542 Y-23.942 Z-1.500 F100
G1 X-16.262 Y-23.713 Z-1.500 F100
G1 X-15.992 Y-23.472 Z-1.500 F100
G1 X-15.732 Y-23.219 Z-1.500 F100
G1 X-15.484 Y-22.955 Z-1.500 F100
G1 X-15.248 Y-22.681 Z-1.500 F100
G1 X-15.023 Y-22.397 Z-1.500 F100
G1 X-14.812 Y-22.103 Z-1.500 F100
G1 X-14.613 Y-21.800 Z-1.500 F100
G1 X-14.428 Y-21.489 Z-1.500 F100
G1 X-14.256 Y-21.170 Z-1.500 F100
G1 X-14.099 Y-20.844 Z-1.500 F100
G1 X-13.956 Y-20.511 Z-1.500 F100
G1 X-13.827 Y-20.173 Z-1.500 F100
G1 X-13.714 Y-19.829 Z-1.500 F100
G1 X-13.616 Y-19.480 Z-1.500 F100
G1 X-13.532 Y-19.128 Z-1.500 F100
G1 X-13.465 Y-18.772 Z-1.500 F100
G1 X-13.413 Y-18.414 Z-1.500 F100
G1 X-13.376 Y-18.054 Z-1.500 F100
G1 X-13.356 Y-17.692 Z-1.500 F100
G1 X-13.351 Y-17.330 Z-1.500 F100
G1 X-13.362 Y-16.968 Z-1.500 F100
G1 X-13.389 Y-16.607 Z-1.500 F100
G1 X-13.431 Y-16.247 Z-1.500 F100
G1 X-13.489 Y-15.890 Z-1.500 F100
G1 X-13.563 Y-15.535 Z-1.500 F100
G1 X-13.652 Y-15.184 Z-1.500 F100
G1 X-13.756 Y-14.837 Z-1.500 F100
G1 X-13.875 Y-14.495 Z-1.500 F100
G1 X-14.010 Y-14.159 Z-1.500 F100
G1 X-14.158 Y-13.829 Z-1.500 F100
G1 X-14.321 Y-13.505 Z-1.500 F100
G1 X-14.498 Y-13.189 Z-1.500 F100
G1 X-14.688 Y-12.881 Z-1.500 F100
G1 X-14.892 Y-12.582 Z-1.500 F100
G1 X-15.109 Y-12.292 Z-1.500 F100
G1 X-15.338 Y-12.011 Z-1.500 F100
G1 X-15.579 Y-11.741 Z-1.500 F100
G1 X-15.831 Y-11.482 Z-1.500 F100
G1 X-15.903 Y-11.400 Z-1.500 F100
G1 X-15.963 Y-11.309 Z-1.500 F100
G1 X-16.009 Y-11.210 Z-1.500 F100
G1 X-16.040 Y-11.106 Z-1.500 F100
G1 X-16.057 Y-10.998 Z-1.500 F100
G1 X-16.057 Y-10.889 Z-1.500 F100
G1 X-16.042 Y-10.781 Z-1.500 F100
G1 X-16.012 Y-10.676 Z-1.500 F100
G1 X-15.985 Y-10.582 Z-1.500 F100
G1 X-15.972 Y-10.484 Z-1.500 F100
G1 X-15.972 Y-10.386 Z-1.500 F100
G1 X-15.987 Y-10.289 Z-1.500 F100
G1 X-16.016 Y-10.194 Z-1.500 F100
G1 X-16.058 Y-10.105 Z-1.500 F100
G1 X-16.113 Y-10.024 Z-1.500 F100
G1 X-16.179 Y-9.950 Z-1.500 F100
G1 X-16.254 Y-9.887 Z-1.500 F100
G1 X-16.569 Y-9.671 Z-1.500 F100
G1 X-16.893 Y-9.467 Z-1.500 F100
G1 X-17.225 Y-9.277 Z-1.500 F100
G1 X-17.564 Y-9.101 Z-1.500 F100
G1 X-17.911 Y-8.940 Z-1.500 F100
G1 X-18.264 Y-8.792 Z-1.500 F100
G1 X-18.622 Y-8.660 Z-1.500 F100
G1 X-18.986 Y-8.542 Z-1.500 F100
G1 X-19.354 Y-8.440 Z-1.500 F100
G1 X-19.727 Y-8.352 Z-1.500 F100
G1 X-20.102 Y-8.281 Z-1.500 F100
G1 X-20.480 Y-8.224 Z-1.500 F100
G1 X-20.861 Y-8.184 Z-1.500 F100
G1 X-21.242 Y-8.159 Z-1.500 F100
G1 X-21.624 Y-8.150 Z-1.500 F100
G1 X-22.007 Y-8.157 Z-1.500 F100
G1 X-22.388 Y-8.179 Z-1.500 F100
G1 X-22.769 Y-8.218 Z-1.500 F100
G1 X-23.147 Y-8.272 Z-1.500 F100
G1 X-23.523 Y-8.342 Z-1.500 F100
G1 X-23.896 Y-8.427 Z-1.500 F100
G1 X-24.265 Y-8.527 Z-1.500 F100
G1 X-24.629 Y-8.643 Z-1.500 F100
G1 X-24.989 Y-8.773 Z-1.500 F100
G1 X-25.342 Y-8.919 Z-1.500 F100
G1 X-25.690 Y-9.078 Z-1.500 F100
G1 X-26.030 Y-9.252 Z-1.500 F100
G1 X-26.363 Y-9.440 Z-1.500 F100
G1 X-26.688 Y-9.642 Z-1.500 F100
G1 X-27.004 Y-9.857 Z-1.500 F100
G1 X-27.311 Y-10.084 Z-1.500 F100
G1 X-27.609 Y-10.324 Z-1.500 F100
G1 X-27.896 Y-10.577 Z-1.500 F100
G1 X-28.173 Y-10.841 Z-1.500 F100
G1 X-28.438 Y-11.116 Z-1.500 F100
G1 X-28.692 Y-11.402 Z-1.500 F100
G1 X-28.934 Y-11.698 Z-1.500 F100
G1 X-29.163 Y-12.004 Z-1.500 F100
G1 X-29.380 Y-12.319 Z-1.500 F100
G1 X-29.583 Y-12.642 Z-1.500 F100
G1 X-29.773 Y-12.974 Z-1.500 F100
G1 X-29.949 Y-13.314 Z-1.500 F100
G1 X-30.111 Y-13.660 Z-1.500 F100
G1 X-30.258 Y-14.013 Z-1.500 F100
G1 X-30.391 Y-14.372 Z-1.500 F100
G1 X-30.509 Y-14.735 Z-1.500 F100
G1 X-30.611 Y-15.104 Z-1.500 F100
G1 X-30.698 Y-15.476 Z-1.500 F100
G1 X-30.770 Y-15.852 Z-1.500 F100
G1 X-30.826 Y-16.230 Z-1.500 F100
G1 X-30.867 Y-16.610 Z-1.500 F100
G1 X-30.892 Y-16.991 Z-1.500 F100
G1 X-30.901 Y-17.374 Z-1.500 F100
G1 X-30.894 Y-17.756 Z-1.500 F100
G1 X-30.871 Y-18.138 Z-1.500 F100
G1 X-30.833 Y-18.518 Z-1.500 F100
G1 X-30.779 Y-18.897 Z-1.500 F100
G1 X-30.709 Y-19.272 Z-1.500 F100
G1 X-30.624 Y-19.645 Z-1.500 F100
G1 X-30.524 Y-20.014 Z-1.500 F100
G1 X-30.408 Y-20.379 Z-1.500 F100
G1 X-30.277 Y-20.738 Z-1.500 F100
G1 X-30.132 Y-21.092 Z-1.500 F100
G1 X-29.972 Y-21.439 Z-1.500 F100
G1 X-29.798 Y-21.779 Z-1.500 F100
G1 X-29.610 Y-22.112 Z-1.500 F100
G1 X-29.409 Y-22.437 Z-1.500 F100
G1 X-29.194 Y-22.754 Z-1.500 F100
G1 X-28.966 Y-23.061 Z-1.500 F100
G1 X-28.726 Y-23.358 Z-1.500 F100
G1 X-28.474 Y-23.645 Z-1.500 F100
G1 X-28.210 Y-23.922 Z-1.500 F100
G1 X-27.935 Y-24.188 Z-1.500 F100
G1 X-27.649 Y-24.441 Z-1.500 F100
G1 X-27.353 Y-24.683 Z-1.500 F100
G1 X-27.047 Y-24.913 Z-1.500 F100
G1 X-26.732 Y-25.129 Z-1.500 F100
G1 X-26.408 Y-25.333 Z-1.500 F100
G1 X-26.076 Y-25.523 Z-1.500 F100
G1 X-25.737 Y-25.699 Z-1.500 F100
G1 X-25.390 Y-25.860 Z-1.500 F100
G1 X-25.038 Y-26.008 Z-1.500 F100
G1 X-24.679 Y-26.140 Z-1.500 F100
G1 X-24.315 Y-26.258 Z-1.500 F100
G1 X-23.947 Y-26.360 Z-1.500 F100
G1 X-23.575 Y-26.448 Z-1.500 F100
G1 X-23.199 Y-26.519 Z-1.500 F100
G1 X-22.821 Y-26.576 Z-1.500 F100
G1 X-22.441 Y-26.616 Z-1.500 F100
G1 X-22.059 Y-26.641 Z-1.500 F100
G1 X-21.677 Y-26.650 Z-1.500 F100
G1 X-21.295 Y-26.643 Z-1.500 F100
G1 X-20.913 Y-26.621 Z-1.500 F100
G1 X-20.533 Y-26.582 Z-1.500 F100
G1 X-20.154 Y-26.528 Z-1.500 F100
G1 X-19.778 Y-26.458 Z-1.500 F100
G1 X-19.405 Y-26.373 Z-1.500 F100
G1 X-19.036 Y-26.273 Z-1.500 F100
G1 X-18.672 Y-26.157 Z-1.500 F100
G1 X-18.313 Y-26.027 Z-1.500 F100
G1 X-17.959 Y-25.881 Z-1.500 F100
G1 X-17.612 Y-25.722 Z-1.500 F100
G1 X-17.271 Y-25.548 Z-1.500 F100
G1 X-16.938 Y-25.360 Z-1.500 F100
G1 X-16.613 Y-25.158 Z-1.500 F100
G1 X-16.297 Y-24.943 Z-1.500 F100
G1 X-15.990 Y-24.716 Z-1.500 F100
G1 X-15.692 Y-24.476 Z-1.500 F100
G1 X-15.405 Y-24.223 Z-1.500 F100
G1 X-15.128 Y-23.959 Z-1.500 F100
G1 X-14.863 Y-23.684 Z-1.500 F100
G1 X-14.609 Y-23.398 Z-1.500 F100
G1 X-14.367 Y-23.102 Z-1.500 F100
G1 X-14.138 Y-22.796 Z-1.500 F100
G1 X-13.921 Y-22.481 Z-1.500 F100
G1 X-13.718 Y-22.158 Z-1.500 F100
G1 X-13.528 Y-21.826 Z-1.500 F100
G1 X-13.352 Y-21.486 Z-1.500 F100
G1 X-13.190 Y-21.140 Z-1.500 F100
G1 X-13.043 Y-20.787 Z-1.500 F100
G1 X-12.910 Y-20.428 Z-1.500 F100
G1 X-12.793 Y-20.065 Z-1.500 F100
G1 X-12.690 Y-19.696 Z-1.500 F100
G1 X-12.603 Y-19.324 Z-1.500 F100
G1 X-12.531 Y-18.948 Z-1.500 F100
G1 X-12.475 Y-18.570 Z-1.500 F100
G1 X-12.434 Y-18.190 Z-1.500 F100
G1 X-12.410 Y-17.809 Z-1.500 F100
G1 X-12.401 Y-17.426 Z-1.500 F100
G1 X-12.407 Y-17.044 Z-1.500 F100
G1 X-12.430 Y-16.662 Z-1.500 F100
G1 X-12.468 Y-16.282 Z-1.500 F100
G1 X-12.522 Y-15.903 Z-1.500 F100
G1 X-12.592 Y-15.528 Z-1.500 F100
G1 X-12.677 Y-15.155 Z-1.500 F100
G1 X-12.778 Y-14.786 Z-1.500 F100
G1 X-12.893 Y-14.421 Z-1.500 F100
G1 X-13.024 Y-14.062 Z-1.500 F100
G1 X-13.169 Y-13.708 Z-1.500 F100
G1 X-13.329 Y-13.361 Z-1.500 F100
G1 X-13.503 Y-13.021 Z-1.500 F100
G1 X-13.691 Y-12.688 Z-1.500 F100
G1 X-13.892 Y-12.363 Z-1.500 F100
G1 X-14.107 Y-12.046 Z-1.500 F100
G1 X-14.335 Y-11.739 Z-1.500 F100
G1 X-14.575 Y-11.442 Z-1.500 F100
G1 X-14.827 Y-11.155 Z-1.500 F100
G1 X-15.091 Y-10.878 Z-1.500 F100
G1 X-15.366 Y-10.612 Z-1.500 F100
G1 X-15.652 Y-10.359 Z-1.500 F100
G1 X-15.948 Y-10.117 Z-1.500 F100
G1 X-16.254 Y-9.887 Z-1.500 F100
G1 X-16.287 Y-9.869 Z-1.490 F3000
G1 X-16.323 Y-9.860 Z-1.480 F3000
G1 X-16.351 Y-9.859 Z-1.452 F3000
G1 X-16.378 Y-9.863 Z-1.425 F3000
G1 X-16.397 Y-9.870 Z-1.350 F3000
G0 X-16.397 Y-9.870 Z15.000
G0 X25.771 Y-18.048 Z15.000
G0 X25.771 Y-18.048 Z5.000
G1 X25.771 Y-18.048 Z0.300 F40
G1 X25.771 Y-18.048 Z-1.350 F100
G1 X25.778 Y-18.046 Z-1.396 F100
G1 X25.798 Y-18.040 Z-1.438 F100
G1 X25.829 Y-18.029 Z-1.471 F100
G1 X25.869 Y-18.016 Z-1.493 F100
G1 X25.913 Y-18.002 Z-1.500 F100
G1 X26.005 Y-17.964 Z-1.500 F100
G1 X26.090 Y-17.912 Z-1.500 F100
G1 X26.165 Y-17.848 Z-1.500 F100
G1 X26.230 Y-17.772 Z-1.500 F100
G1 X26.282 Y-17.687 Z-1.500 F100
G1 X26.320 Y-17.596 Z-1.500 F100
G1 X26.343 Y-17.499 Z-1.500 F100
G1 X26.351 Y-17.400 Z-1.500 F100
G1 X26.343 Y-17.127 Z-1.500 F100
G1 X26.319 Y-16.854 Z-1.500 F100
G1 X26.279 Y-16.584 Z-1.500 F100
G1 X26.224 Y-16.316 Z-1.500 F100
G1 X26.153 Y-16.052 Z-1.500 F100
G1 X26.067 Y-15.793 Z-1.500 F100
G1 X25.966 Y-15.538 Z-1.500 F100
G1 X25.851 Y-15.291 Z-1.500 F100
G1 X25.721 Y-15.050 Z-1.500 F100
G1 X25.577 Y-14.817 Z-1.500 F100
G1 X25.421 Y-14.593 Z-1.500 F100
G1 X25.251 Y-14.379 Z-1.500 F100
G1 X25.069 Y-14.175 Z-1.500 F100
G1 X24.876 Y-13.981 Z-1.500 F100
G1 X24.672 Y-13.800 Z-1.500 F100
G1 X24.457 Y-13.630 Z-1.500 F100
G1 X24.233 Y-13.473 Z-1.500 F100
G1 X24.001 Y-13.330 Z-1.500 F100
G1 X23.760 Y-13.200 Z-1.500 F100
G1 X23.512 Y-13.084 Z-1.500 F100
G1 X23.258 Y-12.983 Z-1.500 F100
G1 X22.999 Y-12.897 Z-1.500 F100
G1 X22.734 Y-12.827 Z-1.500 F100
G1 X22.467 Y-12.771 Z-1.500 F100
G1 X22.196 Y-12.732 Z-1.500 F100
G1 X21.924 Y-12.708 Z-1.500 F100
G1 X21.651 Y-12.700 Z-1.500 F100
G1 X21.377 Y-12.708 Z-1.500 F100
G1 X21.105 Y-12.732 Z-1.500 F100
G1 X20.834 Y-12.771 Z-1.500 F100
G1 X20.567 Y-12.827 Z-1.500 F100
G1 X20.303 Y-12.897 Z-1.500 F100
G1 X20.043 Y-12.983 Z-1.500 F100
G1 X19.789 Y-13.084 Z-1.500 F100
G1 X19.541 Y-13.200 Z-1.500 F100
G1 X19.301 Y-13.330 Z-1.500 F100
G1 X19.068 Y-13.473 Z-1.500 F100
G1 X18.844 Y-13.630 Z-1.500 F100
G1 X18.629 Y-13.800 Z-1.500 F100
G1 X18.425 Y-13.981 Z-1.500 F100
G1 X18.232 Y-14.175 Z-1.500 F100
G1 X18.050 Y-14.379 Z-1.500 F100
G1 X17.881 Y-14.593 Z-1.500 F100
G1 X17.724 Y-14.817 Z-1.500 F100
G1 X17.580 Y-15.050 Z-1.500 F100
G1 X17.451 Y-15.291 Z-1.500 F100
G1 X17.335 Y-15.538 Z-1.500 F100
G1 X17.234 Y-15.793 Z-1.500 F100
G1 X17.148 Y-16.052 Z-1.500 F100
G1 X17.077 Y-16.316 Z-1.500 F100
G1 X17.022 Y-16.584 Z-1.500 F100
G1 X16.982 Y-16.854 Z-1.500 F100
G1 X16.959 Y-17.127 Z-1.500 F100
G1 X16.951 Y-17.400 Z-1.500 F100
G1 X16.959 Y-17.673 Z-1.500 F100
G1 X16.982 Y-17.946 Z-1.500 F100
G1 X17.022 Y-18.216 Z-1.500 F100
G1 X17.077 Y-18.484 Z-1.500 F100
G1 X17.148 Y-18.748 Z-1.500 F100
G1 X17.234 Y-19.007 Z-1.500 F100
G1 X17.335 Y-19.262 Z-1.500 F100
G1 X17.451 Y-19.509 Z-1.500 F100
G1 X17.580 Y-19.750 Z-1.500 F100
G1 X17.724 Y-19.983 Z-1.500 F100
G1 X17.881 Y-20.207 Z-1.500 F100
G1 X18.050 Y-20.421 Z-1.500 F100
G1 X18.232 Y-20.625 Z-1.500 F100
G1 X18.425 Y-20.819 Z-1.500 F100
G1 X18.629 Y-21.000 Z-1.500 F100
G1 X18.844 Y-21.170 Z-1.500 F100
G1 X19.068 Y-21.327 Z-1.500 F100
G1 X19.301 Y-21.470 Z-1.500 F100
G1 X19.541 Y-21.600 Z-1.500 F100
G1 X19.789 Y-21.716 Z-1.500 F100
G1 X20.043 Y-21.817 Z-1.500 F100
G1 X20.303 Y-21.903 Z-1.500 F100
G1 X20.567 Y-21.973 Z-1.500 F100
G1 X20.834 Y-22.029 Z-1.500 F100
G1 X21.105 Y-22.068 Z-1.500 F100
G1 X21.377 Y-22.092 Z-1.500 F100
G1 X21.651 Y-22.100 Z-1.500 F100
G1 X21.924 Y-22.092 Z-1.500 F100
G1 X22.196 Y-22.068 Z-1.500 F100
G1 X22.467 Y-22.029 Z-1.500 F100
G1 X22.734 Y-21.973 Z-1.500 F100
G1 X22.999 Y-21.903 Z-1.500 F100
G1 X23.258 Y-21.817 Z-1.500 F100
G1 X23.512 Y-21.716 Z-1.500 F100
G1 X23.760 Y-21.600 Z-1.500 F100
G1 X24.001 Y-21.470 Z-1.500 F100
G1 X24.233 Y-21.327 Z-1.500 F100
G1 X24.457 Y-21.170 Z-1.500 F100
G1 X24.672 Y-21.000 Z-1.500 F100
G1 X24.876 Y-20.819 Z-1.500 F100
G1 X25.069 Y-20.625 Z-1.500 F100
G1 X25.251 Y-20.421 Z-1.500 F100
G1 X25.421 Y-20.207 Z-1.500 F100
G1 X25.577 Y-19.983 Z-1.500 F100
G1 X25.721 Y-19.750 Z-1.500 F100
G1 X25.851 Y-19.509 Z-1.500 F100
G1 X25.966 Y-19.262 Z-1.500 F100
G1 X26.067 Y-19.007 Z-1.500 F100
G1 X26.153 Y-18.748 Z-1.500 F100
G1 X26.224 Y-18.484 Z-1.500 F100
G1 X26.279 Y-18.216 Z-1.500 F100
G1 X26.319 Y-17.946 Z-1.500 F100
G1 X26.343 Y-17.673 Z-1.500 F100
G1 X26.351 Y-17.400 Z-1.500 F100
G1 X26.358 Y-17.299 Z-1.500 F100
G1 X26.379 Y-17.201 Z-1.500 F100
G1 X26.414 Y-17.106 Z-1.500 F100
G1 X26.462 Y-17.018 Z-1.500 F100
G1 X26.521 Y-16.936 Z-1.500 F100
G1 X26.592 Y-16.864 Z-1.500 F100
G1 X26.672 Y-16.803 Z-1.500 F100
G1 X26.760 Y-16.754 Z-1.500 F100
G1 X26.840 Y-16.708 Z-1.500 F100
G1 X26.912 Y-16.651 Z-1.500 F100
G1 X26.975 Y-16.584 Z-1.500 F100
G1 X27.026 Y-16.508 Z-1.500 F100
G1 X27.066 Y-16.425 Z-1.500 F100
G1 X27.092 Y-16.337 Z-1.500 F100
G1 X27.105 Y-16.246 Z-1.500 F100
G1 X27.104 Y-16.154 Z-1.500 F100
G1 X27.089 Y-16.063 Z-1.500 F100
G1 X27.010 Y-15.776 Z-1.500 F100
G1 X26.916 Y-15.493 Z-1.500 F100
G1 X26.807 Y-15.215 Z-1.500 F100
G1 X26.683 Y-14.944 Z-1.500 F100
G1 X26.545 Y-14.679 Z-1.500 F100
G1 X26.394 Y-14.423 Z-1.500 F100
G1 X26.228 Y-14.175 Z-1.500 F100
G1 X26.050 Y-13.935 Z-1.500 F100
G1 X25.860 Y-13.706 Z-1.500 F100
G1 X25.657 Y-13.487 Z-1.500 F100
G1 X25.443 Y-13.280 Z-1.500 F100
G1 X25.218 Y-13.084 Z-1.500 F100
G1 X24.984 Y-12.900 Z-1.500 F100
G1 X24.739 Y-12.729 Z-1.500 F100
G1 X24.486 Y-12.571 Z-1.500 F100
G1 X24.225 Y-12.427 Z-1.500 F100
G1 X23.957 Y-12.297 Z-1.500 F100
G1 X23.682 Y-12.182 Z-1.500 F100
G1 X23.402 Y-12.081 Z-1.500 F100
G1 X23.116 Y-11.995 Z-1.500 F100
G1 X22.826 Y-11.925 Z-1.500 F100
G1 X22.533 Y-11.870 Z-1.500 F100
G1 X22.238 Y-11.831 Z-1.500 F100
G1 X21.940 Y-11.808 Z-1.500 F100
G1 X21.642 Y-11.800 Z-1.500 F100
G1 X21.344 Y-11.808 Z-1.500 F100
G1 X21.047 Y-11.833 Z-1.500 F100
G1 X20.752 Y-11.873 Z-1.500 F100
G1 X20.459 Y-11.928 Z-1.500 F100
G1 X20.169 Y-11.999 Z-1.500 F100
G1 X19.884 Y-12.086 Z-1.500 F100
G1 X19.604 Y-12.187 Z-1.500 F100
G1 X19.329 Y-12.304 Z-1.500 F100
G1 X19.061 Y-12.435 Z-1.500 F100
G1 X18.801 Y-12.579 Z-1.500 F100
G1 X18.548 Y-12.738 Z-1.500 F100
G1 X18.304 Y-12.910 Z-1.500 F100
G1 X18.070 Y-13.094 Z-1.500 F100
G1 X17.846 Y-13.291 Z-1.500 F100
G1 X17.633 Y-13.499 Z-1.500 F100
G1 X17.431 Y-13.718 Z-1.500 F100
G1 X17.241 Y-13.948 Z-1.500 F100
G1 X17.063 Y-14.188 Z-1.500 F100
G1 X16.899 Y-14.437 Z-1.500 F100
G1 X16.748 Y-14.694 Z-1.500 F100
G1 X16.611 Y-14.958 Z-1.500 F100
G1 X16.488 Y-15.230 Z-1.500 F100
G1 X16.380 Y-15.508 Z-1.500 F100
G1 X16.287 Y-15.791 Z-1.500 F100
G1 X16.209 Y-16.079 Z-1.500 F100
G1 X16.146 Y-16.370 Z-1.500 F100
G1 X16.099 Y-16.665 Z-1.500 F100
G1 X16.068 Y-16.961 Z-1.500 F100
G1 X16.052 Y-17.259 Z-1.500 F100
G1 X16.053 Y-17.557 Z-1.500 F100
G1 X16.069 Y-17.855 Z-1.500 F100
G1 X16.101 Y-18.151 Z-1.500 F100
G1 X16.149 Y-18.446 Z-1.500 F100
G1 X16.213 Y-18.737 Z-1.500 F100
G1 X16.291 Y-19.024 Z-1.500 F100
G1 X16.385 Y-19.307 Z-1.500 F100
G1 X16.494 Y-19.585 Z-1.500 F100
G1 X16.618 Y-19.856 Z-1.500 F100
G1 X16.756 Y-20.121 Z-1.500 F100
G1 X16.908 Y-20.377 Z-1.500 F100
G1 X17.073 Y-20.625 Z-1.500 F100
G1 X17.251 Y-20.865 Z-1.500 F100
G1 X17.442 Y-21.094 Z-1.500 F100
G1 X17.644 Y-21.313 Z-1.500 F100
G1 X17.858 Y-21.520 Z-1.500 F100
G1 X18.083 Y-21.716 Z-1.500 F100
G1 X18.318 Y-21.900 Z-1.500 F100
G1 X18.562 Y-22.071 Z-1.500 F100
G1 X18.815 Y-22.229 Z-1.500 F100
G1 X19.076 Y-22.373 Z-1.500 F100
G1 X19.344 Y-22.503 Z-1.500 F100
G1 X19.619 Y-22.618 Z-1.500 F100
G1 X19.900 Y-22.719 Z-1.500 F100
G1 X20.185 Y-22.805 Z-1.500 F100
G1 X20.475 Y-22.875 Z-1.500 F100
G1 X20.768 Y-22.930 Z-1.500 F100
G1 X21.063 Y-22.969 Z-1.500 F100
G1 X21.361 Y-22.992 Z-1.500 F100
G1 X21.659 Y-23.000 Z-1.500 F100
G1 X21.957 Y-22.992 Z-1.500 F100
G1 X22.254 Y-22.967 Z-1.500 F100
G1 X22.549 Y-22.927 Z-1.500 F100
G1 X22.842 Y-22.872 Z-1.500 F100
G1 X23.132 Y-22.801 Z-1.500 F100
G1 X23.417 Y-22.714 Z-1.500 F100
G1 X23.698 Y-22.613 Z-1.500 F100
G1 X23.972 Y-22.496 Z-1.500 F100
G1 X24.240 Y-22.365 Z-1.500 F100
G1 X24.501 Y-22.221 Z-1.500 F100
G1 X24.753 Y-22.062 Z-1.500 F100
G1 X24.997 Y-21.890 Z-1.500 F100
G1 X25.231 Y-21.706 Z-1.500 F100
G1 X25.455 Y-21.509 Z-1.500 F100
G1 X25.668 Y-21.301 Z-1.500 F100
G1 X25.870 Y-21.082 Z-1.500 F100
G1 X26.060 Y-20.852 Z-1.500 F100
G1 X26.238 Y-20.612 Z-1.500 F100
G1 X26.402 Y-20.363 Z-1.500 F100
G1 X26.553 Y-20.106 Z-1.500 F100
G1 X26.690 Y-19.842 Z-1.500 F100
G1 X26.813 Y-19.570 Z-1.500 F100
G1 X26.921 Y-19.292 Z-1.500 F100
G1 X27.015 Y-19.009 Z-1.500 F100
G1 X27.093 Y-18.721 Z-1.500 F100
G1 X27.155 Y-18.430 Z-1.500 F100
G1 X27.202 Y-18.135 Z-1.500 F100
G1 X27.233 Y-17.839 Z-1.500 F100
G1 X27.249 Y-17.541 Z-1.500 F100
G1 X27.248 Y-17.243 Z-1.500 F100
G1 X27.232 Y-16.945 Z-1.500 F100
G1 X27.200 Y-16.649 Z-1.500 F100
G1 X27.152 Y-16.354 Z-1.500 F100
G1 X27.089 Y-16.063 Z-1.500 F100
G1 X27.071 Y-15.963 Z-1.500 F100
G1 X27.069 Y-15.861 Z-1.500 F100
G1 X27.080 Y-15.760 Z-1.500 F100
G1 X27.106 Y-15.662 Z-1.500 F100
G1 X27.145 Y-15.568 Z-1.500 F100
G1 X27.198 Y-15.480 Z-1.500 F100
G1 X27.262 Y-15.401 Z-1.500 F100
G1 X27.336 Y-15.332 Z-1.500 F100
G1 X27.404 Y-15.269 Z-1.500 F100
G1 X27.461 Y-15.197 Z-1.500 F100
G1 X27.507 Y-15.117 Z-1.500 F100
G1 X27.541 Y-15.031 Z-1.500 F100
G1 X27.562 Y-14.940 Z-1.500 F100
G1 X27.568 Y-14.848 Z-1.500 F100
G1 X27.561 Y-14.756 Z-1.500 F100
G1 X27.541 Y-14.666 Z-1.500 F100
G1 X27.507 Y-14.580 Z-1.500 F100
G1 X27.360 Y-14.294 Z-1.500 F100
G1 X27.200 Y-14.015 Z-1.500 F100
G1 X27.026 Y-13.745 Z-1.500 F100
G1 X26.838 Y-13.484 Z-1.500 F100
G1 X26.638 Y-13.232 Z-1.500 F100
G1 X26.426 Y-12.990 Z-1.500 F100
G1 X26.202 Y-12.760 Z-1.500 F100
G1 X25.967 Y-12.540 Z-1.500 F100
G1 X25.721 Y-12.333 Z-1.500 F100
G1 X25.466 Y-12.137 Z-1.500 F100
G1 X25.201 Y-11.955 Z-1.500 F100
G1 X24.927 Y-11.786 Z-1.500 F100
G1 X24.646 Y-11.631 Z-1.500 F100
G1 X24.357 Y-11.490 Z-1.500 F100
G1 X24.061 Y-11.363 Z-1.500 F100
G1 X23.760 Y-11.252 Z-1.500 F100
G1 X23.453 Y-11.155 Z-1.500 F100
G1 X23.142 Y-11.073 Z-1.500 F100
G1 X22.827 Y-11.007 Z-1.500 F100
G1 X22.510 Y-10.957 Z-1.500 F100
G1 X22.190 Y-10.922 Z-1.500 F100
G1 X21.869 Y-10.904 Z-1.500 F100
G1 X21.547 Y-10.901 Z-1.500 F100
G1 X21.226 Y-10.914 Z-1.500 F100
G1 X20.906 Y-10.943 Z-1.500 F100
G1 X20.588 Y-10.988 Z-1.500 F100
G1 X20.272 Y-11.048 Z-1.500 F100
G1 X19.959 Y-11.124 Z-1.500 F100
G1 X19.651 Y-11.215 Z-1.500 F100
G1 X19.348 Y-11.322 Z-1.500 F100
G1 X19.050 Y-11.443 Z-1.500 F100
G1 X18.758 Y-11.579 Z-1.500 F100
G1 X18.474 Y-11.729 Z-1.500 F100
G1 X18.197 Y-11.893 Z-1.500 F100
G1 X17.929 Y-12.071 Z-1.500 F100
G1 X17.670 Y-12.261 Z-1.500 F100
G1 X17.421 Y-12.464 Z-1.500 F100
G1 X17.182 Y-12.680 Z-1.500 F100
G1 X16.954 Y-12.906 Z-1.500 F100
G1 X16.738 Y-13.144 Z-1.500 F100
G1 X16.533 Y-13.392 Z-1.500 F100
G1 X16.341 Y-13.650 Z-1.500 F100
G1 X16.162 Y-13.917 Z-1.500 F100
G1 X15.997 Y-14.193 Z-1.500 F100
G1 X15.845 Y-14.477 Z-1.500 F100
G1 X15.708 Y-14.767 Z-1.500 F100
G1 X15.585 Y-15.064 Z-1.500 F100
G1 X15.477 Y-15.367 Z-1.500 F100
G1 X15.384 Y-15.675 Z-1.500 F100
G1 X15.306 Y-15.987 Z-1.500 F100
G1 X15.244 Y-16.302 Z-1.500 F100
G1 X15.197 Y-16.621 Z-1.500 F100
G1 X15.167 Y-16.941 Z-1.500 F100
G1 X15.152 Y-17.262 Z-1.500 F100
G1 X15.153 Y-17.584 Z-1.500 F100
G1 X15.170 Y-17.905 Z-1.500 F100
G1 X15.203 Y-18.224 Z-1.500 F100
G1 X15.252 Y-18.542 Z-1.500 F100
G1 X15.316 Y-18.857 Z-1.500 F100
G1 X15.396 Y-19.169 Z-1.500 F100
G1 X15.491 Y-19.476 Z-1.500 F100
G1 X15.601 Y-19.778 Z-1.500 F100
G1 X15.726 Y-20.074 Z-1.500 F100
G1 X15.866 Y-20.364 Z-1.500 F100
G1 X16.019 Y-20.646 Z-1.500 F100
G1 X16.187 Y-20.921 Z-1.500 F100
G1 X16.368 Y-21.187 Z-1.500 F100
G1 X16.561 Y-21.444 Z-1.500 F100
G1 X16.768 Y-21.690 Z-1.500 F100
G1 X16.986 Y-21.926 Z-1.500 F100
G1 X17.215 Y-22.152 Z-1.500 F100
G1 X17.456 Y-22.365 Z-1.500 F100
G1 X17.706 Y-22.567 Z-1.500 F100
G1 X17.967 Y-22.755 Z-1.500 F100
G1 X18.236 Y-22.931 Z-1.500 F100
G1 X18.514 Y-23.093 Z-1.500 F100
G1 X18.799 Y-23.241 Z-1.500 F100
G1 X19.092 Y-23.375 Z-1.500 F100
G1 X19.390 Y-23.494 Z-1.500 F100
G1 X19.694 Y-23.599 Z-1.500 F100
G1 X20.003 Y-23.688 Z-1.500 F100
G1 X20.316 Y-23.762 Z-1.500 F100
G1 X20.632 Y-23.820 Z-1.500 F100
G1 X20.951 Y-23.862 Z-1.500 F100
G1 X21.272 Y-23.889 Z-1.500 F100
G1 X21.593 Y-23.900 Z-1.500 F100
G1 X21.914 Y-23.895 Z-1.500 F100
G1 X22.235 Y-23.874 Z-1.500 F100
G1 X22.555 Y-23.837 Z-1.500 F100
G1 X22.872 Y-23.784 Z-1.500 F100
G1 X23.186 Y-23.716 Z-1.500 F100
G1 X23.497 Y-23.632 Z-1.500 F100
G1 X23.803 Y-23.533 Z-1.500 F100
G1 X24.103 Y-23.419 Z-1.500 F100
G1 X24.398 Y-23.291 Z-1.500 F100
G1 X24.686 Y-23.148 Z-1.500 F100
G1 X24.966 Y-22.991 Z-1.500 F100
G1 X25.239 Y-22.820 Z-1.500 F100
G1 X25.503 Y-22.636 Z-1.500 F100
G1 X25.757 Y-22.439 Z-1.500 F100
G1 X26.001 Y-22.230 Z-1.500 F100
G1 X26.234 Y-22.009 Z-1.500 F100
G1 X26.457 Y-21.776 Z-1.500 F100
G1 X26.667 Y-21.533 Z-1.500 F100
G1 X26.866 Y-21.280 Z-1.500 F100
G1 X27.051 Y-21.017 Z-1.500 F100
G1 X27.223 Y-20.746 Z-1.500 F100
G1 X27.382 Y-20.466 Z-1.500 F100
G1 X27.527 Y-20.179 Z-1.500 F100
G1 X27.657 Y-19.885 Z-1.500 F100
G1 X27.772 Y-19.585 Z-1.500 F100
G1 X27.873 Y-19.280 Z-1.500 F100
G1 X27.958 Y-18.969 Z-1.500 F100
G1 X28.028 Y-18.656 Z-1.500 F100
G1 X28.082 Y-18.339 Z-1.500 F100
G1 X28.121 Y-18.019 Z-1.500 F100
G1 X28.144 Y-17.699 Z-1.500 F100
G1 X28.151 Y-17.377 Z-1.500 F100
G1 X28.141 Y-17.056 Z-1.500 F100
G1 X28.117 Y-16.735 Z-1.500 F100
G1 X28.076 Y-16.416 Z-1.500 F100
G1 X28.019 Y-16.100 Z-1.500 F100
G1 X27.947 Y-15.786 Z-1.500 F100
G1 X27.860 Y-15.477 Z-1.500 F100
G1 X27.757 Y-15.172 Z-1.500 F100
G1 X27.639 Y-14.873 Z-1.500 F100
G1 X27.507 Y-14.580 Z-1.500 F100
G1 X27.469 Y-14.485 Z-1.500 F100
G1 X27.445 Y-14.385 Z-1.500 F100
G1 X27.436 Y-14.283 Z-1.500 F100
G1 X27.441 Y-14.181 Z-1.500 F100
G1 X27.461 Y-14.080 Z-1.500 F100
G1 X27.494 Y-13.984 Z-1.500 F100
G1 X27.542 Y-13.893 Z-1.500 F100
G1 X27.601 Y-13.809 Z-1.500 F100
G1 X27.655 Y-13.734 Z-1.500 F100
G1 X27.697 Y-13.651 Z-1.500 F100
G1 X27.727 Y-13.563 Z-1.500 F100
G1 X27.743 Y-13.472 Z-1.500 F100
G1 X27.746 Y-13.379 Z-1.500 F100
G1 X27.735 Y-13.287 Z-1.500 F100
G1 X27.711 Y-13.197 Z-1.500 F100
G1 X27.674 Y-13.112 Z-1.500 F100
G1 X27.625 Y-13.033 Z-1.500 F100
G1 X27.417 Y-12.762 Z-1.500 F100
G1 X27.196 Y-12.501 Z-1.500 F100
G1 X26.964 Y-12.250 Z-1.500 F100
G1 X26.721 Y-12.010 Z-1.500 F100
G1 X26.466 Y-11.781 Z-1.500 F100
G1 X26.202 Y-11.565 Z-1.500 F100
G1 X25.927 Y-11.361 Z-1.500 F100
G1 X25.644 Y-11.170 Z-1.500 F100
G1 X25.352 Y-10.992 Z-1.500 F100
G1 X25.052 Y-10.828 Z-1.500 F100
G1 X24.745 Y-10.678 Z-1.500 F100
G1 X24.431 Y-10.542 Z-1.500 F100
G1 X24.111 Y-10.421 Z-1.500 F100
G1 X23.787 Y-10.315 Z-1.500 F100
G1 X23.457 Y-10.224 Z-1.500 F100
G1 X23.124 Y-10.148 Z-1.500 F100
G1 X22.787 Y-10.088 Z-1.500 F100
G1 X22.448 Y-10.043 Z-1.500 F100
G1 X22.108 Y-10.014 Z-1.500 F100
G1 X21.766 Y-10.001 Z-1.500 F100
G1 X21.424 Y-10.003 Z-1.500 F100
G1 X21.083 Y-10.022 Z-1.500 F100
G1 X20.743 Y-10.056 Z-1.500 F100
G1 X20.405 Y-10.106 Z-1.500 F100
G1 X20.069 Y-10.171 Z-1.500 F100
G1 X19.737 Y-10.252 Z-1.500 F100
G1 X19.409 Y-10.348 Z-1.500 F100
G1 X19.085 Y-10.459 Z-1.500 F100
G1 X18.768 Y-10.585 Z-1.500 F100
G1 X18.456 Y-10.725 Z-1.500 F100
G1 X18.151 Y-10.880 Z-1.500 F100
G1 X17.854 Y-11.048 Z-1.500 F100
G1 X17.564 Y-11.231 Z-1.500 F100
G1 X17.284 Y-11.426 Z-1.500 F100
G1 X17.013 Y-11.634 Z-1.500 F100
G1 X16.751 Y-11.854 Z-1.500 F100
G1 X16.500 Y-12.086 Z-1.500 F100
G1 X16.260 Y-12.330 Z-1.500 F100
G1 X16.032 Y-12.584 Z-1.500 F100
G1 X15.816 Y-12.849 Z-1.500 F100
G1 X15.612 Y-13.123 Z-1.500 F100
G1 X15.421 Y-13.407 Z-1.500 F100
G1 X15.243 Y-13.699 Z-1.500 F100
G1 X15.079 Y-13.999 Z-1.500 F100
G1 X14.929 Y-14.306 Z-1.500 F100
G1 X14.793 Y-14.619 Z-1.500 F100
G1 X14.672 Y-14.939 Z-1.500 F100
G1 X14.566 Y-15.264 Z-1.500 F100
G1 X14.474 Y-15.594 Z-1.500 F100
G1 X14.399 Y-15.927 Z-1.500 F100
G1 X14.338 Y-16.263 Z-1.500 F100
G1 X14.294 Y-16.602 Z-1.500 F100
G1 X14.265 Y-16.943 Z-1.500 F100
G1 X14.252 Y-17.285 Z-1.500 F100
G1 X14.254 Y-17.626 Z-1.500 F100
G1 X14.272 Y-17.968 Z-1.500 F100
G1 X14.307 Y-18.308 Z-1.500 F100
G1 X14.356 Y-18.646 Z-1.500 F100
G1 X14.422 Y-18.982 Z-1.500 F100
G1 X14.502 Y-19.314 Z-1.500 F100
G1 X14.598 Y-19.642 Z-1.500 F100
G1 X14.709 Y-19.965 Z-1.500 F100
G1 X14.835 Y-20.283 Z-1.500 F100
G1 X14.976 Y-20.595 Z-1.500 F100
G1 X15.130 Y-20.900 Z-1.500 F100
G1 X15.299 Y-21.197 Z-1.500 F100
G1 X15.481 Y-21.486 Z-1.500 F100
G1 X15.676 Y-21.767 Z-1.500 F100
G1 X15.884 Y-22.038 Z-1.500 F100
G1 X16.105 Y-22.299 Z-1.500 F100
G1 X16.337 Y-22.550 Z-1.500 F100
G1 X16.581 Y-22.790 Z-1.500 F100
G1 X16.835 Y-23.019 Z-1.500 F100
G1 X17.100 Y-23.235 Z-1.500 F100
G1 X17.374 Y-23.439 Z-1.500 F100
G1 X17.657 Y-23.630 Z-1.500 F100
G1 X17.949 Y-23.808 Z-1.500 F100
G1 X18.249 Y-23.972 Z-1.500 F100
G1 X18.556 Y-24.122 Z-1.500 F100
G1 X18.870 Y-24.258 Z-1.500 F100
G1 X19.190 Y-24.379 Z-1.500 F100
G1 X19.515 Y-24.485 Z-1.500 F100
G1 X19.844 Y-24.576 Z-1.500 F100
G1 X20.178 Y-24.652 Z-1.500 F100
G1 X20.514 Y-24.712 Z-1.500 F100
G1 X20.853 Y-24.757 Z-1.500 F100
G1 X21.194 Y-24.786 Z-1.500 F100
G1 X21.535 Y-24.799 Z-1.500 F100
G1 X21.877 Y-24.797 Z-1.500 F100
G1 X22.218 Y-24.778 Z-1.500 F100
G1 X22.558 Y-24.744 Z-1.500 F100
G1 X22.897 Y-24.694 Z-1.500 F100
G1 X23.232 Y-24.629 Z-1.500 F100
G1 X23.564 Y-24.548 Z-1.500 F100
G1 X23.893 Y-24.452 Z-1.500 F100
G1 X24.216 Y-24.341 Z-1.500 F100
G1 X24.534 Y-24.215 Z-1.500 F100
G1 X24.845 Y-24.075 Z-1.500 F100
G1 X25.150 Y-23.920 Z-1.500 F100
G1 X25.448 Y-23.752 Z-1.500 F100
G1 X25.737 Y-23.569 Z-1.500 F100
G1 X26.017 Y-23.374 Z-1.500 F100
G1 X26.289 Y-23.166 Z-1.500 F100
G1 X26.550 Y-22.946 Z-1.500 F100
G1 X26.801 Y-22.714 Z-1.500 F100
G1 X27.041 Y-22.470 Z-1.500 F100
G1 X27.269 Y-22.216 Z-1.500 F100
G1 X27.486 Y-21.951 Z-1.500 F100
G1 X27.690 Y-21.677 Z-1.500 F100
G1 X27.881 Y-21.393 Z-1.500 F100
G1 X28.058 Y-21.101 Z-1.500 F100
G1 X28.223 Y-20.801 Z-1.500 F100
G1 X28.373 Y-20.494 Z-1.500 F100
G1 X28.508 Y-20.181 Z-1.500 F100
G1 X28.629 Y-19.861 Z-1.500 F100
G1 X28.736 Y-19.536 Z-1.500 F100
G1 X28.827 Y-19.206 Z-1.500 F100
G1 X28.903 Y-18.873 Z-1.500 F100
G1 X28.963 Y-18.537 Z-1.500 F100
G1 X29.007 Y-18.198 Z-1.500 F100
G1 X29.036 Y-17.857 Z-1.500 F100
G1 X29.050 Y-17.515 Z-1.500 F100
G1 X29.047 Y-17.174 Z-1.500 F100
G1 X29.029 Y-16.832 Z-1.500 F100
G1 X28.995 Y-16.492 Z-1.500 F100
G1 X28.945 Y-16.154 Z-1.500 F100
G1 X28.880 Y-15.818 Z-1.500 F100
G1 X28.799 Y-15.486 Z-1.500 F100
G1 X28.703 Y-15.158 Z-1.500 F100
G1 X28.592 Y-14.835 Z-1.500 F100
G1 X28.466 Y-14.517 Z-1.500 F100
G1 X28.325 Y-14.205 Z-1.500 F100
G1 X28.171 Y-13.900 Z-1.500 F100
G1 X28.002 Y-13.603 Z-1.500 F100
G1 X27.820 Y-13.314 Z-1.500 F100
G1 X27.625 Y-13.033 Z-1.500 F100
G1 X27.570 Y-12.946 Z-1.500 F100
G1 X27.528 Y-12.852 Z-1.500 F100
G1 X27.501 Y-12.753 Z-1.500 F100
G1 X27.487 Y-12.650 Z-1.500 F100
G1 X27.489 Y-12.548 Z-1.500 F100
G1 X27.505 Y-12.446 Z-1.500 F100
G1 X27.535 Y-12.347 Z-1.500 F100
G1 X27.579 Y-12.254 Z-1.500 F100
G1 X27.619 Y-12.170 Z-1.500 F100
G1 X27.646 Y-12.081 Z-1.500 F100
G1 X27.660 Y-11.989 Z-1.500 F100
G1 X27.660 Y-11.896 Z-1.500 F100
G1 X27.647 Y-11.804 Z-1.500 F100
G1 X27.621 Y-11.714 Z-1.500 F100
G1 X27.582 Y-11.630 Z-1.500 F100
G1 X27.531 Y-11.552 Z-1.500 F100
G1 X27.470 Y-11.482 Z-1.500 F100
G1 X27.206 Y-11.233 Z-1.500 F100
G1 X26.932 Y-10.997 Z-1.500 F100
G1 X26.648 Y-10.773 Z-1.500 F100
G1 X26.354 Y-10.561 Z-1.500 F100
G1 X26.051 Y-10.362 Z-1.500 F100
G1 X25.740 Y-10.177 Z-1.500 F100
G1 X25.421 Y-10.006 Z-1.500 F100
G1 X25.095 Y-9.848 Z-1.500 F100
G1 X24.762 Y-9.705 Z-1.500 F100
G1 X24.423 Y-9.577 Z-1.500 F100
G1 X24.079 Y-9.463 Z-1.500 F100
G1 X23.731 Y-9.365 Z-1.500 F100
G1 X23.379 Y-9.282 Z-1.500 F100
G1 X23.023 Y-9.214 Z-1.500 F100
G1 X22.664 Y-9.162 Z-1.500 F100
G1 X22.304 Y-9.126 Z-1.500 F100
G1 X21.943 Y-9.105 Z-1.500 F100
G1 X21.580 Y-9.100 Z-1.500 F100
G1 X21.219 Y-9.111 Z-1.500 F100
G1 X20.857 Y-9.138 Z-1.500 F100
G1 X20.498 Y-9.180 Z-1.500 F100
G1 X20.140 Y-9.239 Z-1.500 F100
G1 X19.786 Y-9.312 Z-1.500 F100
G1 X19.435 Y-9.401 Z-1.500 F100
G1 X19.088 Y-9.506 Z-1.500 F100
G1 X18.746 Y-9.625 Z-1.500 F100
G1 X18.410 Y-9.759 Z-1.500 F100
G1 X18.079 Y-9.908 Z-1.500 F100
G1 X17.756 Y-10.070 Z-1.500 F100
G1 X17.440 Y-10.247 Z-1.500 F100
G1 X17.132 Y-10.438 Z-1.500 F100
G1 X16.833 Y-10.642 Z-1.500 F100
G1 X16.542 Y-10.858 Z-1.500 F100
G1 X16.262 Y-11.087 Z-1.500 F100
G1 X15.992 Y-11.328 Z-1.500 F100
G1 X15.732 Y-11.581 Z-1.500 F100
G1 X15.484 Y-11.845 Z-1.500 F100
G1 X15.248 Y-12.119 Z-1.500 F100
G1 X15.023 Y-12.403 Z-1.500 F100
G1 X14.812 Y-12.697 Z-1.500 F100
G1 X14.613 Y-13.000 Z-1.500 F100
G1 X14.428 Y-13.311 Z-1.500 F100
G1 X14.256 Y-13.630 Z-1.500 F100
G1 X14.099 Y-13.956 Z-1.500 F100
G1 X13.956 Y-14.289 Z-1.500 F100
G1 X13.827 Y-14.627 Z-1.500 F100
G1 X13.714 Y-14.971 Z-1.500 F100
G1 X13.616 Y-15.320 Z-1.500 F100
G1 X13.532 Y-15.672 Z-1.500 F100
G1 X13.465 Y-16.028 Z-1.500 F100
G1 X13.413 Y-16.386 Z-1.500 F100
G1 X13.376 Y-16.746 Z-1.500 F100
G1 X13.356 Y-17.108 Z-1.500 F100
G1 X13.351 Y-17.470 Z-1.500 F100
G1 X13.362 Y-17.832 Z-1.500 F100
G1 X13.389 Y-18.193 Z-1.500 F100
G1 X13.431 Y-18.553 Z-1.500 F100
G1 X13.489 Y-18.910 Z-1.500 F100
G1 X13.563 Y-19.265 Z-1.500 F100
G1 X13.652 Y-19.616 Z-1.500 F100
G1 X13.756 Y-19.963 Z-1.500 F100
G1 X13.875 Y-20.305 Z-1.500 F100
G1 X14.010 Y-20.641 Z-1.500 F100
G1 X14.158 Y-20.971 Z-1.500 F100
G1 X14.321 Y-21.295 Z-1.500 F100
G1 X14.498 Y-21.611 Z-1.500 F100
G1 X14.688 Y-21.919 Z-1.500 F100
G1 X14.892 Y-22.218 Z-1.500 F100
G1 X15.109 Y-22.508 Z-1.500 F100
G1 X15.338 Y-22.789 Z-1.500 F100
G1 X15.579 Y-23.059 Z-1.500 F100
G1 X15.831 Y-23.318 Z-1.500 F100
G1 X16.095 Y-23.567 Z-1.500 F100
G1 X16.369 Y-23.803 Z-1.500 F100
G1 X16.654 Y-24.027 Z-1.500 F100
G1 X16.948 Y-24.239 Z-1.500 F100
G1 X17.250 Y-24.438 Z-1.500 F100
G1 X17.561 Y-24.623 Z-1.500 F100
G1 X17.880 Y-24.794 Z-1.500 F100
G1 X18.207 Y-24.952 Z-1.500 F100
G1 X18.539 Y-25.095 Z-1.500 F100
G1 X18.878 Y-25.223 Z-1.500 F100
G1 X19.222 Y-25.337 Z-1.500 F100
G1 X19.570 Y-25.435 Z-1.500 F100
G1 X19.923 Y-25.518 Z-1.500 F100
G1 X20.278 Y-25.586 Z-1.500 F100
G1 X20.637 Y-25.638 Z-1.500 F100
G1 X20.997 Y-25.674 Z-1.500 F100
G1 X21.359 Y-25.695 Z-1.500 F100
G1 X21.721 Y-25.700 Z-1.500 F100
G1 X22.083 Y-25.689 Z-1.500 F100
G1 X22.444 Y-25.662 Z-1.500 F100
G1 X22.803 Y-25.620 Z-1.500 F100
G1 X23.161 Y-25.561 Z-1.500 F100
G1 X23.515 Y-25.488 Z-1.500 F100
G1 X23.866 Y-25.399 Z-1.500 F100
G1 X24.213 Y-25.294 Z-1.500 F100
G1 X24.555 Y-25.175 Z-1.500 F100
G1 X24.892 Y-25.041 Z-1.500 F100
G1 X25.222 Y-24.892 Z-1.500 F100
G1 X25.545 Y-24.730 Z-1.500 F100
G1 X25.861 Y-24.553 Z-1.500 F100
G1 X26.169 Y-24.362 Z-1.500 F100
G1 X26.469 Y-24.158 Z-1.500 F100
G1 X26.759 Y-23.942 Z-1.500 F100
G1 X27.039 Y-23.713 Z-1.500 F100
G1 X27.309 Y-23.472 Z-1.500 F100
G1 X27.569 Y-23.219 Z-1.500 F100
G1 X27.817 Y-22.955 Z-1.500 F100
G1 X28.054 Y-22.681 Z-1.500 F100
G1 X28.278 Y-22.397 Z-1.500 F100
G1 X28.490 Y-22.103 Z-1.500 F100
G1 X28.688 Y-21.800 Z-1.500 F100
G1 X28.873 Y-21.489 Z-1.500 F100
G1 X29.045 Y-21.170 Z-1.500 F100
G1 X29.202 Y-20.844 Z-1.500 F100
G1 X29.345 Y-20.511 Z-1.500 F100
G1 X29.474 Y-20.173 Z-1.500 F100
G1 X29.587 Y-19.829 Z-1.500 F100
G1 X29.686 Y-19.480 Z-1.500 F100
G1 X29.769 Y-19.128 Z-1.500 F100
G1 X29.836 Y-18.772 Z-1.500 F100
G1 X29.888 Y-18.414 Z-1.500 F100
G1 X29.925 Y-18.054 Z-1.500 F100
G1 X29.945 Y-17.692 Z-1.500 F100
G1 X29.950 Y-17.330 Z-1.500 F100
G1 X29.939 Y-16.968 Z-1.500 F100
G1 X29.913 Y-16.607 Z-1.500 F100
G1 X29.870 Y-16.247 Z-1.500 F100
G1 X29.812 Y-15.890 Z-1.500 F100
G1 X29.738 Y-15.535 Z-1.500 F100
G1 X29.649 Y-15.184 Z-1.500 F100
G1 X29.545 Y-14.837 Z-1.500 F100
G1 X29.426 Y-14.495 Z-1.500 F100
G1 X29.292 Y-14.159 Z-1.500 F100
G1 X29.143 Y-13.829 Z-1.500 F100
G1 X28.980 Y-13.505 Z-1.500 F100
G1 X28.803 Y-13.189 Z-1.500 F100
G1 X28.613 Y-12.881 Z-1.500 F100
G1 X28.409 Y-12.582 Z-1.500 F100
G1 X28.193 Y-12.292 Z-1.500 F100
G1 X27.963 Y-12.011 Z-1.500 F100
G1 X27.722 Y-11.741 Z-1.500 F100
G1 X27.470 Y-11.482 Z-1.500 F100
G1 X27.398 Y-11.400 Z-1.500 F100
G1 X27.338 Y-11.309 Z-1.500 F100
G1 X27.292 Y-11.210 Z-1.500 F100
G1 X27.261 Y-11.106 Z-1.500 F100
G1 X27.245 Y-10.998 Z-1.500 F100
G1 X27.244 Y-10.889 Z-1.500 F100
G1 X27.259 Y-10.781 Z-1.500 F100
G1 X27.289 Y-10.676 Z-1.500 F100
G1 X27.316 Y-10.582 Z-1.500 F100
G1 X27.330 Y-10.484 Z-1.500 F100
G1 X27.329 Y-10.386 Z-1.500 F100
G1 X27.314 Y-10.289 Z-1.500 F100
G1 X27.285 Y-10.194 Z-1.500 F100
G1 X27.243 Y-10.105 Z-1.500 F100
G1 X27.188 Y-10.024 Z-1.500 F100
G1 X27.123 Y-9.950 Z-1.500 F100
G1 X27.047 Y-9.887 Z-1.500 F100
G1 X26.732 Y-9.671 Z-1.500 F100
G1 X26.408 Y-9.467 Z-1.500 F100
G1 X26.076 Y-9.277 Z-1.500 F100
G1 X25.737 Y-9.101 Z-1.500 F100
G1 X25.390 Y-8.940 Z-1.500 F100
G1 X25.038 Y-8.792 Z-1.500 F100
G1 X24.679 Y-8.660 Z-1.500 F100
G1 X24.315 Y-8.542 Z-1.500 F100
G1 X23.947 Y-8.440 Z-1.500 F100
G1 X23.575 Y-8.352 Z-1.500 F100
G1 X23.199 Y-8.281 Z-1.500 F100
G1 X22.821 Y-8.224 Z-1.500 F100
G1 X22.441 Y-8.184 Z-1.500 F100
G1 X22.059 Y-8.159 Z-1.500 F100
G1 X21.677 Y-8.150 Z-1.500 F100
G1 X21.295 Y-8.157 Z-1.500 F100
G1 X20.913 Y-8.179 Z-1.500 F100
G1 X20.533 Y-8.218 Z-1.500 F100
G1 X20.154 Y-8.272 Z-1.500 F100
G1 X19.778 Y-8.342 Z-1.500 F100
G1 X19.405 Y-8.427 Z-1.500 F100
G1 X19.036 Y-8.527 Z-1.500 F100
G1 X18.672 Y-8.643 Z-1.500 F100
G1 X18.313 Y-8.773 Z-1.500 F100
G1 X17.959 Y-8.919 Z-1.500 F100
G1 X17.612 Y-9.078 Z-1.500 F100
G1 X17.271 Y-9.252 Z-1.500 F100
G1 X16.938 Y-9.440 Z-1.500 F100
G1 X16.613 Y-9.642 Z-1.500 F100
G1 X16.297 Y-9.857 Z-1.500 F100
G1 X15.990 Y-10.084 Z-1.500 F100
G1 X15.692 Y-10.324 Z-1.500 F100
G1 X15.405 Y-10.577 Z-1.500 F100
G1 X15.128 Y-10.841 Z-1.500 F100
G1 X14.863 Y-11.116 Z-1.500 F100
G1 X14.609 Y-11.402 Z-1.500 F100
G1 X14.367 Y-11.698 Z-1.500 F100
G1 X14.138 Y-12.004 Z-1.500 F100
G1 X13.921 Y-12.319 Z-1.500 F100
G1 X13.718 Y-12.642 Z-1.500 F100
G1 X13.528 Y-12.974 Z-1.500 F100
G1 X13.352 Y-13.314 Z-1.500 F100
G1 X13.190 Y-13.660 Z-1.500 F100
G1 X13.043 Y-14.013 Z-1.500 F100
G1 X12.910 Y-14.372 Z-1.500 F100
G1 X12.793 Y-14.735 Z-1.500 F100
G1 X12.690 Y-15.104 Z-1.500 F100
G1 X12.603 Y-15.476 Z-1.500 F100
G1 X12.531 Y-15.852 Z-1.500 F100
G1 X12.475 Y-16.230 Z-1.500 F100
G1 X12.434 Y-16.610 Z-1.500 F100
G1 X12.410 Y-16.991 Z-1.500 F100
G1 X12.401 Y-17.374 Z-1.500 F100
G1 X12.407 Y-17.756 Z-1.500 F100
G1 X12.430 Y-18.138 Z-1.500 F100
G1 X12.468 Y-18.518 Z-1.500 F100
G1 X12.522 Y-18.897 Z-1.500 F100
G1 X12.592 Y-19.272 Z-1.500 F100
G1 X12.677 Y-19.645 Z-1.500 F100
G1 X12.778 Y-20.014 Z-1.500 F100
G1 X12.893 Y-20.379 Z-1.500 F100
G1 X13.024 Y-20.738 Z-1.500 F100
G1 X13.169 Y-21.092 Z-1.500 F100
G1 X13.329 Y-21.439 Z-1.500 F100
G1 X13.503 Y-21.779 Z-1.500 F100
G1 X13.691 Y-22.112 Z-1.500 F100
G1 X13.892 Y-22.437 Z-1.500 F100
G1 X14.107 Y-22.754 Z-1.500 F100
G1 X14.335 Y-23.061 Z-1.500 F100
G1 X14.575 Y-23.358 Z-1.500 F100
G1 X14.827 Y-23.645 Z-1.500 F100
G1 X15.091 Y-23.922 Z-1.500 F100
G1 X15.366 Y-24.188 Z-1.500 F100
G1 X15.652 Y-24.441 Z-1.500 F100
G1 X15.948 Y-24.683 Z-1.500 F100
G1 X16.254 Y-24.913 Z-1.500 F100
G1 X16.569 Y-25.129 Z-1.500 F100
G1 X16.893 Y-25.333 Z-1.500 F100
G1 X17.225 Y-25.523 Z-1.500 F100
G1 X17.564 Y-25.699 Z-1.500 F100
G1 X17.911 Y-25.860 Z-1.500 F100
G1 X18.264 Y-26.008 Z-1.500 F100
G1 X18.622 Y-26.140 Z-1.500 F100
G1 X18.986 Y-26.258 Z-1.500 F100
G1 X19.354 Y-26.360 Z-1.500 F100
G1 X19.727 Y-26.448 Z-1.500 F100
G1 X20.102 Y-26.519 Z-1.500 F100
G1 X20.480 Y-26.576 Z-1.500 F100
G1 X20.861 Y-26.616 Z-1.500 F100
G1 X21.242 Y-26.641 Z-1.500 F100
G1 X21.624 Y-26.650 Z-1.500 F100
G1 X22.007 Y-26.643 Z-1.500 F100
G1 X22.388 Y-26.621 Z-1.500 F100
G1 X22.769 Y-26.582 Z-1.500 F100
G1 X23.147 Y-26.528 Z-1.500 F100
G1 X23.523 Y-26.458 Z-1.500 F100
G1 X23.896 Y-26.373 Z-1.500 F100
G1 X24.265 Y-26.273 Z-1.500 F100
G1 X24.629 Y-26.157 Z-1.500 F100
G1 X24.989 Y-26.027 Z-1.500 F100
G1 X25.342 Y-25.881 Z-1.500 F100
G1 X25.690 Y-25.722 Z-1.500 F100
G1 X26.030 Y-25.548 Z-1.500 F100
G1 X26.363 Y-25.360 Z-1.500 F100
G1 X26.688 Y-25.158 Z-1.500 F100
G1 X27.004 Y-24.943 Z-1.500 F100
G1 X27.311 Y-24.716 Z-1.500 F100
G1 X27.609 Y-24.476 Z-1.500 F100
G1 X27.896 Y-24.223 Z-1.500 F100
G1 X28.173 Y-23.959 Z-1.500 F100
G1 X28.438 Y-23.684 Z-1.500 F100
G1 X28.692 Y-23.398 Z-1.500 F100
G1 X28.934 Y-23.102 Z-1.500 F100
G1 X29.163 Y-22.796 Z-1.500 F100
G1 X29.380 Y-22.481 Z-1.500 F100
G1 X29.583 Y-22.158 Z-1.500 F100
G1 X29.773 Y-21.826 Z-1.500 F100
G1 X29.949 Y-21.486 Z-1.500 F100
G1 X30.111 Y-21.140 Z-1.500 F100
G1 X30.258 Y-20.787 Z-1.500 F100
G1 X30.391 Y-20.428 Z-1.500 F100
G1 X30.509 Y-20.065 Z-1.500 F100
G1 X30.611 Y-19.696 Z-1.500 F100
G1 X30.698 Y-19.324 Z-1.500 F100
G1 X30.770 Y-18.948 Z-1.500 F100
G1 X30.826 Y-18.570 Z-1.500 F100
G1 X30.867 Y-18.190 Z-1.500 F100
G1 X30.892 Y-17.809 Z-1.500 F100
G1 X30.901 Y-17.426 Z-1.500 F100
G1 X30.894 Y-17.044 Z-1.500 F100
G1 X30.871 Y-16.662 Z-1.500 F100
G1 X30.833 Y-16.282 Z-1.500 F100
G1 X30.779 Y-15.903 Z-1.500 F100
G1 X30.709 Y-15.528 Z-1.500 F100
G1 X30.624 Y-15.155 Z-1.500 F100
G1 X30.524 Y-14.786 Z-1.500 F100
G1 X30.408 Y-14.421 Z-1.500 F100
G1 X30.277 Y-14.062 Z-1.500 F100
G1 X30.132 Y-13.708 Z-1.500 F100
G1 X29.972 Y-13.361 Z-1.500 F100
G1 X29.798 Y-13.021 Z-1.500 F100
G1 X29.610 Y-12.688 Z-1.500 F100
G1 X29.409 Y-12.363 Z-1.500 F100
G1 X29.194 Y-12.046 Z-1.500 F100
G1 X28.966 Y-11.739 Z-1.500 F100
G1 X28.726 Y-11.442 Z-1.500 F100
G1 X28.474 Y-11.155 Z-1.500 F100
G1 X28.210 Y-10.878 Z-1.500 F100
G1 X27.935 Y-10.612 Z-1.500 F100
G1 X27.649 Y-10.359 Z-1.500 F100
G1 X27.353 Y-10.117 Z-1.500 F100
G1 X27.047 Y-9.887 Z-1.500 F100
G1 X27.014 Y-9.869 Z-1.490 F3000
G1 X26.978 Y-9.860 Z-1.480 F3000
G1 X26.950 Y-9.859 Z-1.452 F3000
G1 X26.923 Y-9.863 Z-1.425 F3000
G1 X26.904 Y-9.870 Z-1.350 F3000
G0 X26.904 Y-9.870 Z15.000
G0 X0.979 Y5.068 Z15.000
G0 X0.979 Y5.068 Z5.000
G1 X0.979 Y5.068 Z2.650 F40
G1 X0.980 Y5.100 Z2.558 F40
G1 X0.978 Y5.150 Z2.516 F40
G1 X0.971 Y5.213 Z2.500 F40
G1 X0.946 Y5.316 Z2.496 F40
G1 X0.906 Y5.415 Z2.493 F40
G1 X0.852 Y5.507 Z2.489 F40
G1 X0.785 Y5.590 Z2.485 F40
G1 X0.706 Y5.662 Z2.481 F40
G1 X0.617 Y5.721 Z2.478 F40
G1 X0.520 Y5.766 Z2.474 F40
G1 X0.418 Y5.796 Z2.470 F40
G1 X0.313 Y5.811 Z2.466 F40
G1 X0.206 Y5.810 Z2.463 F40
G1 X0.101 Y5.793 Z2.459 F40
G1 X-0.001 Y5.760 Z2.455 F40
G1 X-0.096 Y5.713 Z2.452 F40
G1 X-0.184 Y5.652 Z2.448 F40
G1 X-0.261 Y5.578 Z2.444 F40
G1 X-0.326 Y5.494 Z2.440 F40
G1 X-0.379 Y5.401 Z2.437 F40
G1 X-0.416 Y5.301 Z2.433 F40
G1 X-0.439 Y5.197 Z2.429 F40
G1 X-0.445 Y5.090 Z2.425 F40
G1 X-0.436 Y4.984 Z2.422 F40
G1 X-0.411 Y4.881 Z2.418 F40
G1 X-0.370 Y4.782 Z2.414 F40
G1 X-0.316 Y4.690 Z2.411 F40
G1 X-0.248 Y4.608 Z2.407 F40
G1 X-0.169 Y4.536 Z2.403 F40
G1 X-0.080 Y4.478 Z2.399 F40
G1 X0.017 Y4.433 Z2.396 F40
G1 X0.119 Y4.403 Z2.392 F40
G1 X0.225 Y4.389 Z2.388 F40
G1 X0.332 Y4.390 Z2.384 F40
G1 X0.437 Y4.408 Z2.381 F40
G1 X0.538 Y4.441 Z2.377 F40
G1 X0.634 Y4.489 Z2.373 F40
G1 X0.721 Y4.550 Z2.370 F40
G1 X0.798 Y4.624 Z2.366 F40
G1 X0.863 Y4.709 Z2.362 F40
G1 X0.914 Y4.802 Z2.358 F40
G1 X0.952 Y4.902 Z2.355 F40
G1 X0.974 Y5.006 Z2.351 F40
G1 X0.980 Y5.113 Z2.347 F40
G1 X0.970 Y5.219 Z2.343 F40
G1 X0.944 Y5.323 Z2.340 F40
G1 X0.903 Y5.421 Z2.336 F40
G1 X0.848 Y5.512 Z2.332 F40
G1 X0.780 Y5.595 Z2.329 F40
G1 X0.701 Y5.666 Z2.325 F40
G1 X0.611 Y5.724 Z2.321 F40
G1 X0.514 Y5.768 Z2.317 F40
G1 X0.412 Y5.798 Z2.314 F40
G1 X0.306 Y5.811 Z2.310 F40
G1 X0.199 Y5.809 Z2.306 F40
G1 X0.094 Y5.791 Z2.302 F40
G1 X-0.007 Y5.758 Z2.299 F40
G1 X-0.102 Y5.709 Z2.295 F40
G1 X-0.189 Y5.647 Z2.291 F40
G1 X-0.265 Y5.573 Z2.288 F40
G1 X-0.330 Y5.488 Z2.284 F40
G1 X-0.381 Y5.395 Z2.280 F40
G1 X-0.418 Y5.295 Z2.276 F40
G1 X-0.440 Y5.190 Z2.273 F40
G1 X-0.445 Y5.084 Z2.269 F40
G1 X-0.435 Y4.978 Z2.265 F40
G1 X-0.409 Y4.874 Z2.261 F40
G1 X-0.367 Y4.776 Z2.258 F40
G1 X-0.312 Y4.685 Z2.254 F40
G1 X-0.243 Y4.603 Z2.250 F40
G1 X-0.164 Y4.532 Z2.247 F40
G1 X-0.074 Y4.475 Z2.243 F40
G1 X0.023 Y4.431 Z2.239 F40
G1 X0.126 Y4.402 Z2.235 F40
G1 X0.232 Y4.388 Z2.232 F40
G1 X0.338 Y4.391 Z2.228 F40
G1 X0.443 Y4.410 Z2.224 F40
G1 X0.544 Y4.444 Z2.220 F40
G1 X0.639 Y4.492 Z2.217 F40
G1 X0.726 Y4.555 Z2.213 F40
G1 X0.802 Y4.629 Z2.209 F40
G1 X0.866 Y4.714 Z2.206 F40
G1 X0.917 Y4.808 Z2.202 F40
G1 X0.953 Y4.908 Z2.198 F40
G1 X0.974 Y5.013 Z2.194 F40
G1 X0.979 Y5.119 Z2.191 F40
G1 X0.969 Y5.225 Z2.187 F40
G1 X0.942 Y5.329 Z2.183 F40
G1 X0.900 Y5.427 Z2.179 F40
G1 X0.844 Y5.518 Z2.176 F40
G1 X0.776 Y5.599 Z2.172 F40
G1 X0.695 Y5.669 Z2.168 F40
G1 X0.606 Y5.727 Z2.165 F40
G1 X0.508 Y5.771 Z2.161 F40
G1 X0.405 Y5.799 Z2.157 F40
G1 X0.300 Y5.812 Z2.153 F40
G1 X0.193 Y5.809 Z2.150 F40
G1 X0.088 Y5.790 Z2.146 F40
G1 X-0.013 Y5.755 Z2.142 F40
G1 X-0.108 Y5.706 Z2.138 F40
G1 X-0.194 Y5.643 Z2.135 F40
G1 X-0.270 Y5.568 Z2.131 F40
G1 X-0.334 Y5.483 Z2.127 F40
G1 X-0.384 Y5.389 Z2.124 F40
G1 X-0.420 Y5.289 Z2.120 F40
G1 X-0.440 Y5.184 Z2.116 F40
G1 X-0.445 Y5.077 Z2.112 F40
G1 X-0.434 Y4.971 Z2.109 F40
G1 X-0.407 Y4.868 Z2.105 F40
G1 X-0.364 Y4.770 Z2.101 F40
G1 X-0.308 Y4.680 Z2.097 F40
G1 X-0.239 Y4.598 Z2.094 F40
G1 X-0.158 Y4.529 Z2.090 F40
G1 X-0.068 Y4.471 Z2.086 F40
G1 X0.029 Y4.428 Z2.083 F40
G1 X0.132 Y4.400 Z2.079 F40
G1 X0.238 Y4.388 Z2.075 F40
G1 X0.345 Y4.392 Z2.071 F40
G1 X0.450 Y4.411 Z2.068 F40
G1 X0.550 Y4.446 Z2.064 F40
G1 X0.645 Y4.496 Z2.060 F40
G1 X0.731 Y4.559 Z2.056 F40
G1 X0.806 Y4.634 Z2.053 F40
G1 X0.870 Y4.720 Z2.049 F40
G1 X0.920 Y4.814 Z2.045 F40
G1 X0.955 Y4.915 Z2.042 F40
G1 X0.975 Y5.019 Z2.038 F40
G1 X0.979 Y5.126 Z2.034 F40
G1 X0.967 Y5.232 Z2.030 F40
G1 X0.940 Y5.335 Z2.027 F40
G1 X0.897 Y5.433 Z2.023 F40
G1 X0.841 Y5.523 Z2.019 F40
G1 X0.771 Y5.604 Z2.015 F40
G1 X0.690 Y5.673 Z2.012 F40
G1 X0.600 Y5.730 Z2.008 F40
G1 X0.502 Y5.773 Z2.004 F40
G1 X0.399 Y5.800 Z2.000 F40
G1 X0.293 Y5.812 Z1.997 F40
G1 X0.186 Y5.808 Z1.993 F40
G1 X0.082 Y5.788 Z1.989 F40
G1 X-0.019 Y5.753 Z1.986 F40
G1 X-0.113 Y5.703 Z1.982 F40
G1 X-0.199 Y5.639 Z1.978 F40
G1 X-0.274 Y5.563 Z1.974 F40
G1 X-0.337 Y5.477 Z1.971 F40
G1 X-0.387 Y5.383 Z1.967 F40
G1 X-0.422 Y5.282 Z1.963 F40
G1 X-0.441 Y5.177 Z1.959 F40
G1 X-0.445 Y5.071 Z1.956 F40
G1 X-0.432 Y4.965 Z1.952 F40
G1 X-0.404 Y4.862 Z1.948 F40
G1 X-0.361 Y4.764 Z1.945 F40
G1 X-0.304 Y4.674 Z1.941 F40
G1 X-0.234 Y4.594 Z1.937 F40
G1 X-0.153 Y4.525 Z1.933 F40
G1 X-0.063 Y4.468 Z1.930 F40
G1 X0.035 Y4.426 Z1.926 F40
G1 X0.139 Y4.399 Z1.922 F40
G1 X0.245 Y4.388 Z1.918 F40
G1 X0.351 Y4.392 Z1.915 F40
G1 X0.456 Y4.413 Z1.911 F40
G1 X0.556 Y4.449 Z1.907 F40
G1 X0.650 Y4.499 Z1.904 F40
G1 X0.736 Y4.563 Z1.900 F40
G1 X0.811 Y4.639 Z1.896 F40
G1 X0.873 Y4.725 Z1.892 F40
G1 X0.922 Y4.820 Z1.889 F40
G1 X0.957 Y4.921 Z1.885 F40
G1 X0.976 Y5.026 Z1.881 F40
G1 X0.979 Y5.132 Z1.877 F40
G1 X0.966 Y5.238 Z1.874 F40
G1 X0.938 Y5.341 Z1.870 F40
G1 X0.894 Y5.438 Z1.866 F40
G1 X0.837 Y5.528 Z1.863 F40
G1 X0.766 Y5.608 Z1.859 F40
G1 X0.685 Y5.677 Z1.855 F40
G1 X0.594 Y5.733 Z1.851 F40
G1 X0.496 Y5.775 Z1.848 F40
G1 X0.393 Y5.801 Z1.844 F40
G1 X0.286 Y5.812 Z1.840 F40
G1 X0.180 Y5.807 Z1.836 F40
G1 X0.075 Y5.786 Z1.833 F40
G1 X-0.025 Y5.750 Z1.829 F40
G1 X-0.119 Y5.699 Z1.825 F40
G1 X-0.204 Y5.635 Z1.822 F40
G1 X-0.278 Y5.558 Z1.818 F40
G1 X-0.341 Y5.472 Z1.814 F40
G1 X-0.389 Y5.377 Z1.810 F40
G1 X-0.423 Y5.276 Z1.807 F40
G1 X-0.442 Y5.171 Z1.803 F40
G1 X-0.444 Y5.064 Z1.799 F40
G1 X-0.431 Y4.958 Z1.795 F40
G1 X-0.402 Y4.856 Z1.792 F40
G1 X-0.358 Y4.759 Z1.788 F40
G1 X-0.300 Y4.669 Z1.784 F40
G1 X-0.230 Y4.589 Z1.781 F40
G1 X-0.148 Y4.521 Z1.777 F40
G1 X-0.057 Y4.465 Z1.773 F40
G1 X0.042 Y4.424 Z1.769 F40
G1 X0.145 Y4.398 Z1.766 F40
G1 X0.251 Y4.388 Z1.762 F40
G1 X0.358 Y4.393 Z1.758 F40
G1 X0.462 Y4.415 Z1.754 F40
G1 X0.562 Y4.451 Z1.751 F40
G1 X0.656 Y4.503 Z1.747 F40
G1 X0.741 Y4.567 Z1.743 F40
G1 X0.815 Y4.644 Z1.740 F40
G1 X0.877 Y4.731 Z1.736 F40
G1 X0.925 Y4.826 Z1.732 F40
G1 X0.958 Y4.927 Z1.728 F40
G1 X0.976 Y5.032 Z1.725 F40
G1 X0.979 Y5.139 Z1.721 F40
G1 X0.965 Y5.245 Z1.717 F40
G1 X0.935 Y5.347 Z1.713 F40
G1 X0.891 Y5.444 Z1.710 F40
G1 X0.833 Y5.533 Z1.706 F40
G1 X0.762 Y5.613 Z1.702 F40
G1 X0.680 Y5.681 Z1.699 F40
G1 X0.588 Y5.736 Z1.695 F40
G1 X0.490 Y5.777 Z1.691 F40
G1 X0.386 Y5.803 Z1.687 F40
G1 X0.280 Y5.812 Z1.684 F40
G1 X0.173 Y5.806 Z1.680 F40
G1 X0.069 Y5.784 Z1.676 F40
G1 X-0.031 Y5.747 Z1.672 F40
G1 X-0.124 Y5.695 Z1.669 F40
G1 X-0.209 Y5.630 Z1.665 F40
G1 X-0.282 Y5.553 Z1.661 F40
G1 X-0.344 Y5.466 Z1.658 F40
G1 X-0.392 Y5.371 Z1.654 F40
G1 X-0.425 Y5.270 Z1.650 F40
G1 X-0.442 Y5.164 Z1.646 F40
G1 X-0.444 Y5.058 Z1.643 F40
G1 X-0.430 Y4.952 Z1.639 F40
G1 X-0.400 Y4.850 Z1.635 F40
G1 X-0.355 Y4.753 Z1.631 F40
G1 X-0.296 Y4.664 Z1.628 F40
G1 X-0.225 Y4.585 Z1.624 F40
G1 X-0.142 Y4.517 Z1.620 F40
G1 X-0.051 Y4.462 Z1.617 F40
G1 X0.048 Y4.422 Z1.613 F40
G1 X0.151 Y4.397 Z1.609 F40
G1 X0.258 Y4.388 Z1.605 F40
G1 X0.364 Y4.394 Z1.602 F40
G1 X0.468 Y4.417 Z1.598 F40
G1 X0.568 Y4.454 Z1.594 F40
G1 X0.661 Y4.506 Z1.590 F40
G1 X0.745 Y4.572 Z1.587 F40
G1 X0.819 Y4.649 Z1.583 F40
G1 X0.880 Y4.737 Z1.579 F40
G1 X0.927 Y4.832 Z1.576 F40
G1 X0.960 Y4.934 Z1.572 F40
G1 X0.977 Y5.039 Z1.568 F40
G1 X0.978 Y5.146 Z1.564 F40
G1 X0.963 Y5.251 Z1.561 F40
G1 X0.933 Y5.353 Z1.557 F40
G1 X0.888 Y5.450 Z1.553 F40
G1 X0.829 Y5.539 Z1.549 F40
G1 X0.757 Y5.618 Z1.546 F40
G1 X0.674 Y5.685 Z1.542 F40
G1 X0.582 Y5.739 Z1.538 F40
G1 X0.483 Y5.779 Z1.535 F40
G1 X0.380 Y5.804 Z1.531 F40
G1 X0.273 Y5.812 Z1.527 F40
G1 X0.167 Y5.805 Z1.523 F40
G1 X0.063 Y5.783 Z1.520 F40
G1 X-0.037 Y5.744 Z1.516 F40
G1 X-0.130 Y5.692 Z1.512 F40
G1 X-0.213 Y5.626 Z1.508 F40
G1 X-0.287 Y5.548 Z1.505 F40
G1 X-0.347 Y5.461 Z1.501 F40
G1 X-0.394 Y5.365 Z1.497 F40
G1 X-0.426 Y5.263 Z1.494 F40
G1 X-0.443 Y5.158 Z1.490 F40
G1 X-0.444 Y5.051 Z1.486 F40
G1 X-0.428 Y4.946 Z1.482 F40
G1 X-0.398 Y4.844 Z1.479 F40
G1 X-0.352 Y4.747 Z1.475 F40
G1 X-0.292 Y4.659 Z1.471 F40
G1 X-0.220 Y4.580 Z1.467 F40
G1 X-0.137 Y4.513 Z1.464 F40
G1 X-0.045 Y4.460 Z1.460 F40
G1 X0.054 Y4.420 Z1.456 F40
G1 X0.158 Y4.396 Z1.453 F40
G1 X0.264 Y4.388 Z1.449 F40
G1 X0.371 Y4.395 Z1.445 F40
G1 X0.475 Y4.418 Z1.441 F40
G1 X0.574 Y4.457 Z1.438 F40
G1 X0.667 Y4.510 Z1.434 F40
G1 X0.750 Y4.576 Z1.430 F40
G1 X0.823 Y4.654 Z1.426 F40
G1 X0.883 Y4.742 Z1.423 F40
G1 X0.930 Y4.838 Z1.419 F40
G1 X0.961 Y4.940 Z1.415 F40
G1 X0.978 Y5.045 Z1.412 F40
G1 X0.978 Y5.152 Z1.408 F40
G1 X0.962 Y5.258 Z1.404 F40
G1 X0.931 Y5.359 Z1.400 F40
G1 X0.885 Y5.456 Z1.397 F40
G1 X0.825 Y5.544 Z1.393 F40
G1 X0.752 Y5.622 Z1.389 F40
G1 X0.669 Y5.689 Z1.385 F40
G1 X0.576 Y5.742 Z1.382 F40
G1 X0.477 Y5.781 Z1.378 F40
G1 X0.373 Y5.805 Z1.374 F40
G1 X0.267 Y5.813 Z1.371 F40
G1 X0.161 Y5.804 Z1.367 F40
G1 X0.057 Y5.781 Z1.363 F40
G1 X-0.043 Y5.742 Z1.359 F40
G1 X-0.135 Y5.688 Z1.356 F40
G1 X-0.218 Y5.622 Z1.352 F40
G1 X-0.291 Y5.543 Z1.348 F40
G1 X-0.351 Y5.455 Z1.344 F40
G1 X-0.397 Y5.359 Z1.341 F40
G1 X-0.428 Y5.257 Z1.337 F40
G1 X-0.443 Y5.151 Z1.333 F40
G1 X-0.443 Y5.045 Z1.330 F40
